!!!!SEGMENT: pl-wumfc--n68232--021_moniuszko-stanislaw--paria-wyciag-fortepianowy-akt-ii-tercet-z-chorem.krn
!!!cenid: 18xx:4151
!!!COM: Moniuszko, Stanisław
!!!COM-rismID: pe30008351
!!!CDT: 1819/05/05-1872/06/04
!!!CNT: Polish
!!!GTL: Paria – wyciąg fortepianowy
!!!OTL: Akt II. Tercet z chórem
!!!OMV: 021
!!!PDT:
!!!AGN:
!!!SMS-siglum: PL-Wumfc
!!!SMS-shelfmark: N68232
!!!SMS-shelfwork: 001-021 G
!!!SMS-variant:
!!!SMS-altvar:
!!!NIFC-rismSourceID: 1001171381
!!!NIFC-rismChildID: 1001171381
!!!NIFC-islandoraID: pl-wumfc:7210
!!!URL-pdf-islandora: https://repozytorium.nifc.pl/islandora/object/pl-wumfc%3A7210/datastream/PDF/view
!!!URL-scan: https://polish.musicsources.pl/pl/lokalizacje/galeria/druki-muzyczne/12634/1 @EN{Scan on Polish Music Sources Website} @PL{Skany w portalu Dziedzictwo Muzyki Polskiej w otwartym dostępie}
!!!ONB-nifc: UWAGA: str. 76-78. Uwaga: proszę w pliku umieszczać obsadę, która występuje tylko w danej części.
!!!AIN: 1 alto 2 piano 1 soprn 3 vox
!!!key:
**kern	**kern	**dynam	**kern	**text	**text	**dynam	**kern	**text	**text	**dynam	**kern	**text	**text	**dynam	**kern	**text	**text	**dynam	**kern	**text	**text	**dynam
*part7	*part6	*part6	*part5	*part5	*part5	*part5	*part4	*part4	*part4	*part4	*part3	*part3	*part3	*part3	*part2	*part2	*part2	*part2	*part1	*part1	*part1	*part1
*staff7	*staff6	*	*staff5	*staff5	*staff5	*	*staff4	*staff4	*staff4	*	*staff3	*staff3	*staff3	*	*staff2	*staff2	*staff2	*	*staff1	*staff1	*staff1	*
*I"[Piano.]	*I"[Piano.]	*	*I"BRAMINKI BRAMINE	*	*	*	*I"BRAMINKI BRAMINE	*	*	*	*I"Dzares. Djares.	*	*	*	*I"Ratef. Ratef.	*	*	*	*I"Neala. Neala.	*	*	*
*I'[pf]	*I'[pf]	*	*I'[Coro A]	*	*	*	*I'[Coro S]	*	*	*	*I'D.	*	*	*	*I'R.	*	*	*	*I'N.	*	*	*
*ICklav	*ICklav	*	*ICvox	*	*	*	*ICvox	*	*	*	*ICvox	*	*	*	*ICvox	*	*	*	*ICvox	*	*	*
*Ipiano	*Ipiano	*	*Ialto	*	*	*	*Isoprn	*	*	*	*Ivox	*	*	*	*Ivox	*	*	*	*Ivox	*	*	*
*clefF4	*clefG2	*	*clefG2	*	*	*	*clefG2	*	*	*	*clefF4	*	*	*	*clefGv2	*	*	*	*clefG2	*	*	*
*k[b-]	*k[b-]	*	*k[b-]	*	*	*	*k[b-]	*	*	*	*k[b-]	*	*	*	*k[b-]	*	*	*	*k[b-]	*	*	*
*F:	*F:	*	*F:	*	*	*	*F:	*	*	*	*F:	*	*	*	*F:	*	*	*	*F:	*	*	*
*M12/8	*M12/8	*	*M12/8	*	*	*	*M12/8	*	*	*	*M12/8	*	*	*	*M12/8	*	*	*	*M12/8	*	*	*
=1	=1	=1	=1	=1	=1	=1	=1	=1	=1	=1	=1	=1	=1	=1	=1	=1	=1	=1	=1	=1	=1	=1
*	*^	*	*	*	*	*	*	*	*	*	*	*	*	*	*	*	*	*	*	*	*	*
!	!	!	!	!	!	!	!	!LO:TX:a:t=Sopran.	!	!	!	!LO:TX:a:B:t=L`itesso tempo.	!	!	!	!LO:TX:t=P:problem:głos zapisany bez przenośnika oktawowego	!	!	!	!	!	!	!
*tremolo	*	*tremolo	*	*	*	*	*	*	*	*	*	*	*	*	*	*	*	*	*	*	*	*	*
8FF/L 8C 8F	2.f/	8A\L	p	1.ryy	.	.	.	4.f/ 4.a	Ko-	Chial	.	8d\	Pró-	van	f	1.ryy	.	.	.	1.ryy	.	.	.
8FF/ 8C 8F	.	8A\	.	.	.	.	.	.	.	.	.	8c\	-żno	fra	.	.	.	.	.	.	.	.	.
8FF/ 8C 8F	.	8A\	.	.	.	.	.	.	.	.	.	8B-\	ach	le	.	.	.	.	.	.	.	.	.
8FF/ 8C 8F	.	8A\	.	.	.	.	.	4f/ 4a	-goż	suo	.	8A\	pró-	gen-	.	.	.	.	.	.	.	.	.
8FF/ 8C 8F	.	8A\	.	.	.	.	.	.	.	.	.	8G\	-żno	-ti	.	.	.	.	.	.	.	.	.
8FF/J 8C 8F	.	8A\J	.	.	.	.	.	8f/ 8a	nie	pe-	.	8F\	tak	m`ag-	.	.	.	.	.	.	.	.	.
8FF/L 8C 8F	[4.c/	8A\L	.	.	.	.	.	[4.c/ [4.a	wzru-	-nar	.	[4.f\	cho-	-gi-	.	.	.	.	.	.	.	.	.
8FF/ 8C 8F	.	8A\	.	.	.	.	.	.	.	.	.	.	.	.	.	.	.	.	.	.	.	.	.
8FF/ 8C 8F	.	8A\	.	.	.	.	.	.	.	.	.	.	.	.	.	.	.	.	.	.	.	.	.
8FF/ 8C 8F	(4c/]	8A\	.	.	.	.	.	4c/] 4a]	.	.	.	4f\]	.	.	.	.	.	.	.	.	.	.	.
8FF/ 8C 8F	.	8A\	.	.	.	.	.	.	.	.	.	.	.	.	.	.	.	.	.	.	.	.	.
8FF/J 8C 8F	8f/)	8A\J	.	.	.	.	.	8f/ 8a	-szą	pie	.	8c\	-dzę,	-ro,	.	.	.	.	.	.	.	.	.
=2	=2	=2	=2	=2	=2	=2	=2	=2	=2	=2	=2	=2	=2	=2	=2	=2	=2	=2	=2	=2	=2	=2	=2
*	*	*	*	*	*	*	*	*^	*	*	*	*^	*	*	*	*	*	*	*	*	*	*	*
8FF/L 8C 8F	(4.f/	8A\L	.	1.ryy	.	.	.	(4a/	4.f\	te	ta-	.	8c/	8c\L	W o-	nel-	.	1.ryy	.	.	.	1.ryy	.	.	.
8FF/ 8C 8F	.	8A\	.	.	.	.	.	.	.	.	.	.	8B-/	8B-\J	.	-l`il-	.	.	.	.	.	.	.	.	.
8FF/ 8C 8F	.	8A\J	.	.	.	.	.	8cc/)	.	.	.	.	8A\	1ryy	-czach	-lu-	.	.	.	.	.	.	.	.	.
*	*Xtremolo	*	*	*	*	*	*	*	*	*	*	*	*	*	*	*	*	*	*	*	*	*	*	*	*
8FF/ 8C 8F	8A/L)	1ryy	.	.	.	.	.	8f/	8f\	łzy, te	-de non	.	8A\L	.	mi	-sion	.	.	.	.	.	.	.	.	.
8FF/ 8C 8F	8rd	.	.	.	.	.	.	8r	8ryy	.	.	.	8G\J	.	.	.	.	.	.	.	.	.	.	.	.
8FF/J 8C 8F	8A/J	.	.	.	.	.	.	8f/	8f\	ję-	sen-	.	8A\	.	się	cru-	.	.	.	.	.	.	.	.	.
*	*tremolo	*	*	*	*	*	*	*	*	*	*	*	*	*	*	*	*	*	*	*	*	*	*	*	*
8FF/L 8D-X	8B-/L 8f	.	.	.	.	.	.	4.B-X^>/ 4.g	2.ryy	-ki.	-te,	.	[4.B-\	.	ćmi,	-del.	.	.	.	.	.	.	.	.	.
8FF/ 8D-	8B-/ 8f	.	.	.	.	.	.	.	.	.	.	.	.	.	.	.	.	.	.	.	.	.	.	.	.
8FF/ 8D-	8B-/ 8f	.	.	.	.	.	.	.	.	.	.	.	.	.	.	.	.	.	.	.	.	.	.	.	.
!	!	!	!	!	!	!	!	!LO:N:vis=4	!	!	!	!	!	!	!	!	!	!	!	!	!	!	!	!	!
8FF/ 8D-	8B-/ 8f	.	.	.	.	.	.	8B-/ 8d-X	.	.	.	.	8B-\]	.	.	.	.	.	.	.	.	.	.	.	.
8FF/ 8D-	8B-/ 8f	.	.	.	.	.	.	8r	.	.	.	.	8G\	4ryy	Ból	Non	.	.	.	.	.	.	.	.	.
8FF/J 8D-	8B-/J 8f	8ryy	.	.	.	.	.	8r	.	.	.	.	8A\	.	mię	ri-	.	.	.	.	.	.	.	.	.
*	*v	*v	*	*	*	*	*	*	*	*	*	*	*	*	*	*	*	*	*	*	*	*	*	*	*
!!LO:LB:g=original	!	!	!	!	!	!	!	!	!	!	!	!	!	!	!	!	!	!	!	!	!	!	!	!
=3	=3	=3	=3	=3	=3	=3	=3	=3	=3	=3	=3	=3	=3	=3	=3	=3	=3	=3	=3	=3	=3	=3	=3	=3
*Xtremolo	*	*	*	*	*	*	*	*	*	*	*	*	*	*	*	*	*	*	*	*	*	*	*	*
8FF/L 8Dn	2.d/ 2.f	.	1.ryy	.	.	.	4.f/	4.f\	Mo-	e-	.	4.c\	1ryy	drę-	-stà	.	1.ryy	.	.	.	1.r	.	.	.
8FF/ 8C#X	.	.	.	.	.	.	.	.	.	.	.	.	.	.	.	.	.	.	.	.	.	.	.	.
8FF/J 8D	.	.	.	.	.	.	.	.	.	.	.	.	.	.	.	.	.	.	.	.	.	.	.	.
8FF/L 8D	.	.	.	.	.	.	4f/	4f\	-że	-de`	.	8B-\	.	-czy,	l`a-	.	.	.	.	.	.	.	.	.
8FF/ 8D	.	.	.	.	.	.	.	.	.	.	.	8A\	.	nę-	-spro	.	.	.	.	.	.	.	.	.
8FF/J 8D	.	.	.	.	.	.	8f/	8f\	tu	suoi	.	8B-\	.	-ka	mar-	.	.	.	.	.	.	.	.	.
8FF/L 8E-X	2.A/ 2.f	<[	.	.	.	.	[4.f/	[4.f\	le-	ma-	.	4.d\	.	sro-	-ti-	.	.	.	.	.	.	.	.	.
8FF/ 8D	.	.	.	.	.	.	.	.	.	.	.	.	.	.	.	.	.	.	.	.	.	.	.	.
8FF/J 8E-	.	.	.	.	.	.	.	.	.	.	.	.	4ryy	.	.	.	.	.	.	.	.	.	.	.
8FF/L 8E-	.	.	.	.	.	.	4f/]	4f\]	.	.	.	8c\	.	-dze	-ro,	.	.	.	.	.	.	.	.	.
8FF/ 8E-	.	.	.	.	.	.	.	.	.	.	.	8c/	8c\L	Lud	al	.	.	.	.	.	.	.	.	.
8FF/J 8E-	.	.	.	.	.	.	8f/	8f\	-psze	-li	.	8d/	8d\J	.	mio	.	.	.	.	.	.	.	.	.
*	*	*	*	*	*	*	*v	*v	*	*	*	*	*	*	*	*	*	*	*	*	*	*	*	*
*	*	*	*	*	*	*	*	*	*	*	*v	*v	*	*	*	*	*	*	*	*	*	*	*
=4	=4	=4	=4	=4	=4	=4	=4	=4	=4	=4	=4	=4	=4	=4	=4	=4	=4	=4	=4	=4	=4	=4
*	*Xtremolo	*	*	*	*	*	*	*	*	*	*	*	*	*	*	*	*	*	*	*	*	*
8FF/L 8En	8B-/L 8g	sf >	1.ryy	.	.	.	8c/ 8g	bły-	non	.	4e\	głu-	pian-	.	1.ryy	.	.	.	4r	.	.	.
8FF/ 8C	8B-/ 8c 8g	.	.	.	.	.	8c/ 8g	-sną	vor-	.	.	.	.	.	.	.	.	.	.	.	.	.
8FF/J 8D	8B-/J 8c 8g	.	.	.	.	.	8G/ 8g	dla	-ria	.	8d\	-chy	-to è	.	.	.	.	.	8r	.	.	.
!	!	!	!	!	!	!	!	!	!	!	!	!	!	!	!	!	!	!	!LO:TX:a:t=Neala.	!	!	!
!	!	!	!	!	!	!	!	!	!	!	!	!	!	!	!	!	!	!	!LO:TX:a:i:t=Neala.	!	!	!
8FF/L 8E	8B-/L 8g	.	.	.	.	.	4c/ 4g	nie-	giun-	.	4c\	na	sor-	.	.	.	.	.	4r	.	.	.
8FF/ 8D	8B-/ 8g	.	.	.	.	.	.	.	.	.	.	.	.	.	.	.	.	.	.	.	.	.
8FF/J 8C	8B-/J 8e	.	.	.	.	.	8c/ 8g	-go	-to il	.	8B-\	me	-do il	.	.	.	.	.	8c/	O	O	.
8FF'/L	2.A/ 2.c 2.f 2.ee	]	.	.	.	.	8c/ 8a	dni,	fin!	.	[4.A\	łzy,	ciel!	.	.	.	.	.	8f/	bie-	vit-	.
8C'/	.	.	.	.	.	.	8r	.	.	.	.	.	.	.	.	.	.	.	8a/	-dna	-ti-	.
8F'/J	.	.	.	.	.	.	8f/ 8a	O-	Com-	.	.	.	.	.	.	.	.	.	8cc\	o-	-ma	.
8C'/L	.	.	.	.	.	.	4f/ 4a	-fia-	-pen-	.	8A\]	.	.	.	.	.	.	.	4ff\	-fia-	del-	.
8AA'/	.	.	.	.	.	.	.	.	.	.	8r	.	.	.	.	.	.	.	.	.	.	.
8C'/J	.	.	.	.	.	.	8f/ 8a	-ro	-so an-	.	8c\	Ach	Per-	.	.	.	.	.	8ee\	-ro	-la	.
!!LO:LB:g=original	!	!	!	!	!	!	!	!	!	!	!	!	!	!	!	!	!	!	!	!	!	!
=5	=5	=5	=5	=5	=5	=5	=5	=5	=5	=5	=5	=5	=5	=5	=5	=5	=5	=5	=5	=5	=5	=5
*	*tremolo	*	*	*	*	*	*	*	*	*	*	*	*	*	*	*	*	*	*	*	*	*
8BB-\L	8c/L 8e 8g	.	1.ryy	.	.	.	4e/ 4g	lo-	-cor-	.	8d\L	Zgi-	-du-	.	1.ryy	.	.	.	[4.dd\	lo-	sor-	.
8C\	8c/ 8e 8g	.	.	.	.	.	.	.	.	.	8G\J	.	-to	.	.	.	.	.	.	.	.	.
8G\J	8c/J 8e 8g	.	.	.	.	.	8e/ 8g	-su,	-dai	.	8A\	-nąl	ho il	.	.	.	.	.	.	.	.	.
8BB-/L	8r	.	.	.	.	.	4e/ 4g	ludz-	nu-	.	8B-\L	skarb	mio	.	.	.	.	.	4dd\]	.	.	.
8C/	8c/L 8e 8g	.	.	.	.	.	.	.	.	.	8D\J	.	.	.	.	.	.	.	.	.	.	.
8GG/J	8c/J 8e 8cc	.	.	.	.	.	8c/ 8g	-kich	-mi a-	.	8E\	mój	te-	.	.	.	.	.	8cc\	-su,	-te,	.
8FF/L	8r	.	.	.	.	.	8c/ 8a	zdrad!	-vrai,	.	4.F\	dro-	-so-	.	.	.	.	.	4dd\	ludz-	fai	.
8C/	8c/L 8f 8a	.	.	.	.	.	8r	.	.	.	.	.	.	.	.	.	.	.	.	.	.	.
8F/J	8c/J 8a 8cc	.	.	.	.	.	8f/ 8a	Współ-	Se	.	.	.	.	.	.	.	.	.	8cc\	-kich	pie-	.
8c\L	8r	.	.	.	.	.	4f/ 4a	-czu-	te-	.	8A\	-gi!	-ro!	.	.	.	.	.	4cc\	zdrad!	-tà.	.
8A\	8c/L 8f	.	.	.	.	.	.	.	.	.	8r	.	.	.	.	.	.	.	.	.	.	.
8F\J	8f/J 8a	.	.	.	.	.	8f/ 8a	-cie	-co av-	.	8c\	Nie	Le	.	.	.	.	.	8ff\	Współ-	Af-	.
=6	=6	=6	=6	=6	=6	=6	=6	=6	=6	=6	=6	=6	=6	=6	=6	=6	=6	=6	=6	=6	=6	=6
*	*	*	*	*	*	*	*^	*	*	*	*	*	*	*	*	*	*	*	*	*	*	*
8C\L	8e-X/L 8f#X	.	1.ryy	.	.	.	4f#X/ 4a	2ryy	skar-	-ver-	.	8e-X\L	doj-	trac-	.	1.ryy	.	.	.	[4.ee-X\	-czu-	-fron-	.
8A\	8d/ 8f# 8cc	.	.	.	.	.	.	.	.	.	.	8d\J	.	.	.	.	.	.	.	.	.	.	.
8C\J 8c	8f#/J 8ee-X	.	.	.	.	.	8f#/ 8a	.	-bem,	-so	.	8c\	-dę	-cie	.	.	.	.	.	.	.	.	.
8D\L 8c	8f#/L 8ee-	.	.	.	.	.	4f#/ 4a	.	przyjm	fu il	.	8c\	gdzie	sue	.	.	.	.	.	8ee-\L]	.	.	.
8D\ 8B-	8f#/ 8dd	.	.	.	.	.	.	8ryy	.	.	.	8B-\	je-	cer-	.	.	.	.	.	8dd\J	.	-ta	.
8D\J 8A	8d/J 8cc	.	.	.	.	.	8d/	8f#\	je	de-	.	8A\	-go	-coin-	.	.	.	.	.	8cc\	-cie	da	.
8GG/L	8r	.	.	.	.	.	4g\	4d/	rad,	-stin,	.	[4.d\	ślad.	-van...	.	.	.	.	.	4.cc\	skar-	for-	.
*	*Xtremolo	*	*	*	*	*	*	*	*	*	*	*	*	*	*	*	*	*	*	*	*	*	*
8D/	8d/L 8g 8cc	.	.	.	.	.	.	.	.	.	.	.	.	.	.	.	.	.	.	.	.	.	.
8A/J	8d/J 8g 8cc	<	.	.	.	.	8d/	8g\	Współ-	se	.	.	.	.	.	.	.	.	.	.	.	.	.
8B-\L	8d/L 8g 8b-	.	.	.	.	.	4g/	4g\	-czu-	te-	.	8d\]	.	.	.	.	.	.	.	8b-\	-bęm	-te	.
8G\	8g/ 8b- 8dd	.	.	.	.	.	.	.	.	.	.	8r	.	.	.	.	.	.	.	8r	.	.	.
8d\J	8g/J 8b- 8dd 8ffn	[[	.	.	.	.	8g/ 8b-	8ryy	-cie	-co av-	.	8d\	Mnie	In-	.	.	.	.	.	8dd\	wiec	la	.
*	*	*	*	*	*	*	*v	*v	*	*	*	*	*	*	*	*	*	*	*	*	*	*	*
!!LO:PB:g=original	!	!	!	!	!	!	!	!	!	!	!	!	!	!	!	!	!	!	!	!	!	!
!!LO:REH:t=84
=7	=7	=7	=7	=7	=7	=7	=7	=7	=7	=7	=7	=7	=7	=7	=7	=7	=7	=7	=7	=7	=7	=7
*	*^	*	*	*	*	*	*	*	*	*	*^	*	*	*	*	*	*	*	*	*	*	*
8CC/	8g\L 8b- 8dd 8ff	1ryy	f	1.ryy	.	.	.	4g/ 4b-	na-	-ver-	.	8f\L	4ryy	da-	-van	.	1.ryy	.	.	.	8dd\L	na-	du-	.
(8G\L	8g\ 8b- 8cc 8een	.	.	.	.	.	.	.	.	.	.	8en\	.	.	.	.	.	.	.	.	8cc\J	.	.	.
8f\J)	8g\J 8b- 8dd	.	.	.	.	.	.	8g/ 8b-	-szej	-so	.	8d\J	8d/	.	dai	.	.	.	.	.	8dd\	-szej	-ra av-	.
!	!	!	!LO:HP:b:t=dimin.	!	!	!	!	!	!	!	!	!	!	!	!	!	!	!	!	!	!	!	!	!
8C/	8f/L 8g 8b- 8dd	.	>	.	.	.	.	4g/ 4b-	przyj-	fu il	.	8f\L	1ryy	-ły	nu-	.	.	.	.	.	4dd\	przyj-	-ver-	.
(8G\L	8d/ 8a 8cc	.	.	.	.	.	.	.	.	.	.	8c\J	.	.	.	.	.	.	.	.	.	.	.	.
8c\J)	8e/J 8g 8b-	.	.	.	.	.	.	8e/ 8g	-mij	de-	.	8B-\	.	go	-mi im-	.	.	.	.	.	8ee\	-mij	-si-	.
8FF\L	8f/L 8a	.	.	.	.	.	.	8f/ 8cc	rad,	-stin.	.	8A\	.	bo-	-plo-	.	.	.	.	.	[4.ff\	rad.	-tà.	.
8Bn\ 8d	8f/ 8g#X	.	.	.	.	.	.	8r	.	.	.	8G#X\	.	-gi,	-ro	.	.	.	.	.	.	.	.	.
8c\J	8f/J 8a	8ryy	.	.	.	.	.	8f/ 8cc	tu	Com-	.	8A\	.	O-	l`a-	.	.	.	.	.	.	.	.	.
8A\L	4cc/	8c\L 8f	.	.	.	.	.	4f/ 4a	dla	-pen-	.	4c\	.	-de-	-ju-	.	.	.	.	.	4ff\]	.	.	.
8F\	.	8c\ 8a	.	.	.	.	.	.	.	.	.	.	.	.	.	.	.	.	.	.	.	.	.	.
8D\J 8F	16a/LL	8A\J	.	.	.	.	.	8c/ 8f	cię	-so an-	.	16A\LL	8ryy	-brał	-to	.	.	.	.	.	16f/LL	Współ-	Af-	.
.	16f/JJ	.	.	.	.	.	.	.	.	.	.	16F\JJ	.	.	.	.	.	.	.	.	16a/JJ	.	.	.
*	*	*	*	*	*	*	*	*	*	*	*	*v	*v	*	*	*	*	*	*	*	*	*	*	*
=8	=8	=8	=8	=8	=8	=8	=8	=8	=8	=8	=8	=8	=8	=8	=8	=8	=8	=8	=8	=8	=8	=8	=8
*	*	*	*	*	*	*	*	*^	*	*	*	*	*	*	*	*	*	*	*	*	*	*	*
8CC/ 8C	8c/	4.ryy	.	1.ryy	.	.	.	4c/ 4a	2.ryy	le-	-cor	.	8C/	świat,	del	.	1.ryy	.	.	.	4cc\	-czu-	-fron-	.
.	8qe/	.	.	.	.	.	.	.	.	.	.	.	.	.	.	.	.	.	.	.	.	.	.	.
8F\L 8A	(16d/LL	.	.	.	.	.	.	.	.	.	.	.	16D/LL	a	po-	.	.	.	.	.	.	.	.	.
.	16c/	.	.	.	.	.	.	.	.	.	.	.	16C/JJ	.	.	.	.	.	.	.	.	.	.	.
8A\J 8c	16f/	.	.	.	.	.	.	8c/ 8f	.	-psze	dai	.	16F\LL	o-	-ter	.	.	.	.	.	8a/	-cie	-ta an-	.
.	16g/JJ)	.	.	.	.	.	.	.	.	.	.	.	16G\JJ	.	.	.	.	.	.	.	.	.	.	.
4C/	(4a/	8rc	.	.	.	.	.	4c/ 4e	.	bły-	nu-	.	4A\	-de-	so-	.	.	.	.	.	4cc\	dro-	-cor	.
.	.	8c\L 8e	.	.	.	.	.	.	.	.	.	.	.	.	.	.	.	.	.	.	.	.	.	.
8C/	8g/)	8c\J 8e	.	.	.	.	.	8c/ 8e	.	-sną	-mia-	.	8G\	-brał	-vru-	.	.	.	.	.	8b-\	-gim	da	.
8CC/L 8C	8c/L 8f 8a	4.ryy	<	.	.	.	.	8f/L	4c\	dni,	-vrai,	.	[4.c\	świat,	-man.	.	.	.	.	.	8a/	skar-	for-	.
8E/	8c/ 8g 8b-	.	.	.	.	.	.	8g/J	.	.	.	.	.	.	.	.	.	.	.	.	8b-\L	.	.	.
8D/J	8f/J 8g#X 8bn	.	.	.	.	.	.	8g#X/	8f\	O-	com-	.	.	.	.	.	.	.	.	.	8bn\J	.	.	.
8C\L	8cc/L	4f\ 4a	.	.	.	.	.	4a/	4f\	-fia-	-pen-	.	4c\]	.	.	.	.	.	.	.	8cc\L	-bem!	-te	.
8F\	8ee/	.	[	.	.	.	.	.	.	.	.	.	.	.	.	.	.	.	.	.	8ee\J	.	.	.
16A\L	8dd/J	8f\ 8a	>	.	.	.	.	8a/	8f\	-ro	-so an-	.	8c\	Ach	Per-	.	.	.	.	.	8dd\	więc	la	.
16c\JJ	.	.	]]	.	.	.	.	.	.	.	.	.	.	.	.	.	.	.	.	.	.	.	.	.
*	*	*	*	*	*	*	*	*v	*v	*	*	*	*	*	*	*	*	*	*	*	*	*	*	*
!!LO:LB:g=original	!	!	!	!	!	!	!	!	!	!	!	!	!	!	!	!	!	!	!	!	!	!	!
=9	=9	=9	=9	=9	=9	=9	=9	=9	=9	=9	=9	=9	=9	=9	=9	=9	=9	=9	=9	=9	=9	=9	=9
8C\L 8G	8e/L 8g 8dd	2.ryy	.	1.ryy	.	.	.	4e/ 4g	lo-	-cor	.	8d\L	zgi-	-du-	.	1.ryy	.	.	.	8g/L	na-	du-	.
8C\ 8A	8e/ 8g 8cc	.	.	.	.	.	.	.	.	.	.	8c\J	.	.	.	.	.	.	.	8a/J	.	.	.
8C\J 8B-	8e/J 8g 8b-	.	.	.	.	.	.	8e/ 8g	-su	dai	.	8B-\	-nął	-to ho il	.	.	.	.	.	8b-/	-sze	-ra av-	.
8C/L	8c/L 8e 8g 8b-	.	.	.	.	.	.	8e/L 8g	ludz-	nu-	.	(8B-\L	skarb	mio	.	.	.	.	.	8cc\L	przyj-	-ver-	.
8C/	8d/ 8f 8a	.	.	.	.	.	.	8f/J 8a	.	.	.	8A\J	.	.	.	.	.	.	.	8dd\J	.	.	.
8C/J	8e/J 8g	.	.	.	.	.	.	8g/ 8b-	-kich	-mi a-	.	8G\)	.	te-	.	.	.	.	.	8ee\	-mij	-si-	.
8C\L 8A	[4.cc/	8c\L 8f	.	.	.	.	.	8f/ 8a	zdrad!	-vrai	.	[4.A\	dro-	-so-	.	.	.	.	.	[4.ff\	rad	-tà...	.
8C\ 8A	.	8c\ 8f	.	.	.	.	.	8r	.	.	.	.	.	.	.	.	.	.	.	.	.	.	.
8C\J 8A	.	8c\J 8f	.	.	.	.	.	8f/ 8a	Wpół-	se	.	.	.	.	.	.	.	.	.	.	.	.	.
8C\L 8A	4cc/]	8c\L 8f 8a	.	.	.	.	.	4f/ 4a	-czu-	te-	.	4A\]	-gi,	-ro,	.	.	.	.	.	4ff\]	.	.	.
8C\ 8A	.	8c\ 8f 8a	.	.	.	.	.	.	.	.	.	.	.	.	.	.	.	.	.	.	.	.	.
8C\J 8A	8cc/	8c\J 8f 8a	.	.	.	.	.	8f/ 8a	-cie	-co av-	.	8c\	Nie	le	.	.	.	.	.	8cc\	Współ-	Af-	.
=10	=10	=10	=10	=10	=10	=10	=10	=10	=10	=10	=10	=10	=10	=10	=10	=10	=10	=10	=10	=10	=10	=10	=10
8C\L 8c	8ee-X/L	8f\L 8a	.	1.ryy	.	.	.	4f#X/ 4a	skar-	-ver-	.	8e-X\L	doj-	trac-	.	1.ryy	.	.	.	8cc\L	-czu-	-fron-	.
8C\	8dd/	8d\ 8f#X 8a	.	.	.	.	.	.	.	.	.	8d\J	.	.	.	.	.	.	.	8dd\J	.	.	.
8C\J	8cc/J	8e-X\J 8f# 8a	.	.	.	.	.	8f#/ 8a	-bem,	-so	.	8c\	-dę	-cie	.	.	.	.	.	8ee-X\	-cie	-ta an-	.
8C/L	8cc/L	8e-\L 8f# 8a	.	.	.	.	.	8f#/L 8a	przyjm	fu	.	8c\	gdzie	sue	.	.	.	.	.	8ee-\L	dro-	-cor	.
8C/	8b-/	8d\ 8g	.	.	.	.	.	8g/J 8b-	.	il	.	8B-\	je-	cer-	.	.	.	.	.	8dd\J	.	.	.
8C/J	8a/J	8d\J 8f#	.	.	.	.	.	8a\ 8cc	je	de-	.	8A\	-go	-co	.	.	.	.	.	8cc\	-gim	da	.
8CC/L 8C	(4.a/	8rc	.	.	.	.	.	8a\ 8cc	rad,	-stin	.	(4.c\	ślad	in-	.	.	.	.	.	[4.dd\	skar-	for-	.
8C/	.	8d\L 8f# 8a	<	.	.	.	.	8r	.	.	.	.	.	.	.	.	.	.	.	.	.	.	.
8C/J	.	8d\J 8f# 8a	.	.	.	.	.	8f#/ 8a	współ-	se	.	.	.	.	.	.	.	.	.	.	.	.	.
8C/L	4b-/)	8d\L 8g	.	.	.	.	.	4g/ 4b-	-czu-	te-	.	8B-\)	.	-van...	.	.	.	.	.	8dd\L]	.	.	.
8C/	.	8en\ 8g	.	.	.	.	.	.	.	.	.	8r	.	.	.	.	.	.	.	8een\J	.	-te	.
8C/J	8dd/	8fn\J 8g 8b-	[[	.	.	.	.	8g/ 8b-	-cie	-co av-	.	8d\	Mnie	In-	.	.	.	.	.	8ff\	-bem	la	.
!!LO:LB:g=original	!	!	!	!	!	!	!	!	!	!	!	!	!	!	!	!	!	!	!	!	!	!	!
=11	=11	=11	=11	=11	=11	=11	=11	=11	=11	=11	=11	=11	=11	=11	=11	=11	=11	=11	=11	=11	=11	=11	=11
*	*	*	*	*	*	*	*	*	*	*	*	*^	*	*	*	*	*	*	*	*	*	*	*
8C\L 8d	8f/L 8dd 8ff	4.ryy	f	1.ryy	.	.	.	4.b-\ 4.dd	na-	-ver-	.	8f\L	4ryy	da-	-van	.	1.ryy	.	.	.	[4.gg\	na-	du-	.
8C\	8e/ 8cc 8ee	.	.	.	.	.	.	.	.	.	.	8eny\	.	.	.	.	.	.	.	.	.	.	.	.
8C\J	8f/J 8b- 8dd	.	.	.	.	.	.	.	.	.	.	8d\J	8d/	.	dai	.	.	.	.	.	.	.	.	.
8C\L	8b-/L 8dd	4e\	.	.	.	.	.	4g/ 4b-	-sze	-so	.	8f\L	1ryy	-ły	nu-	.	.	.	.	.	4gg\]	.	.	.
8C\	8a/ 8cc	.	.	.	.	.	.	.	.	.	.	8c\J	.	.	.	.	.	.	.	.	.	.	.	.
8C\J 8c	8g/J 8b-	8e\	.	.	.	.	.	8g/ 8cc	ach	av-	.	8B-\	.	go	-mi im-	.	.	.	.	.	8ee\	-sze	-ra av-	.
!	!	!	!LO:HP:b:t=dimin.	!	!	!	!	!	!	!	!	!	!	!	!	!	!	!	!	!	!	!	!	!
8CC/ 8C	8f/L 8a	2.ryy	>	.	.	.	.	(>[4.f/ 4.cc	przyj-	-ver-	.	8A\	.	bo-	-plo-	.	.	.	.	.	[4.ff\	przyj-	-ver-	.
8F\L 8A	(16b-/L	.	.	.	.	.	.	.	.	.	.	8G#X\	.	-gi,	-ro	.	.	.	.	.	.	.	.	.
.	16a/	.	.	.	.	.	.	.	.	.	.	.	.	.	.	.	.	.	.	.	.	.	.	.
8A\J 8c	16g#X/	.	.	.	.	.	.	.	.	.	.	8A\	.	O-	l`a-	.	.	.	.	.	.	.	.	.
.	16a/JJ)	.	.	.	.	.	.	.	.	.	.	.	.	.	.	.	.	.	.	.	.	.	.	.
8C/	(8.dd\L	.	.	.	.	.	.	4f/]) 4a	.	.	.	8.d\L	.	-de-	-ju-	.	.	.	.	.	4ff\]	.	.	.
8A\L 8c 8f	.	.	.	.	.	.	.	.	.	.	.	.	.	.	.	.	.	.	.	.	.	.	.	.
.	16cc\L	.	.	.	.	.	.	.	.	.	.	16c\Jk	.	.	.	.	.	.	.	.	.	.	.	.
8A\J 8c 8f	16a\	.	.	.	.	.	.	8f/ 8a	-mij	-so	.	16A\LL	8ryy	-brał	-to	.	.	.	.	.	8cc\	-mij	-si-	.
.	16f\JJ)	.	.	.	.	.	.	.	.	.	.	16F\JJ	.	.	.	.	.	.	.	.	.	.	.	.
*	*v	*v	*	*	*	*	*	*	*	*	*	*v	*v	*	*	*	*	*	*	*	*	*	*	*
=12	=12	=12	=12	=12	=12	=12	=12	=12	=12	=12	=12	=12	=12	=12	=12	=12	=12	=12	=12	=12	=12	=12
*M6/8	*M6/8	*	*Myy6/8	*	*	*	*M6/8	*	*	*	*M6/8	*	*	*	*yyM6/8	*	*	*	*M6/8	*	*	*
*^	*^	*	*	*	*	*	*	*	*	*	*	*	*	*	*	*	*	*	*	*	*	*
!	!	!	!	!	!	!	!	!	!	!	!	!LO:HP:a:t=dimin.	!	!	!	!LO:HP:a:t=dimin.	!	!	!	!	!	!	!	!LO:HP:a:t=dimin.
8C/L	4.C\	(8c/L	4.ryy	p	2.ryy	.	.	.	4f/ 4a	rad,	fu	>	8C/	świat,	del	>	2.ryy	.	.	.	4cc\	na-	-tà,	>
.	.	8qe/	.	.	.	.	.	.	.	.	.	.	8qE/	.	.	.	.	.	.	.	.	.	.	.
8F/ 8A	.	16d/L	.	.	.	.	.	.	.	.	.	.	16D/LL	ach	po-	.	.	.	.	.	.	.	.	.
.	.	16c/	.	.	.	.	.	.	.	.	.	.	16C/JJ	.	.	.	.	.	.	.	.	.	.	.
8F/J 8A	.	16f/	.	.	.	.	.	.	8f/ 8a	ach	il	.	16F\LL	o-	-ter	.	.	.	.	.	8a/	-sze	l`av-	.
.	.	16g/JJ)	.	.	.	.	.	.	.	.	.	.	16G\JJ	.	.	.	.	.	.	.	.	.	.	.
8C/L	4.C\	(4a/	8rc	.	.	.	.	.	((4e/ 4cc	przyj-	rco	.	4A\	-de-	so-	.	.	.	.	.	4cc\	przyj-	-ver-	.
8A/	.	.	8c\L 8f	.	.	.	.	.	.	.	.	.	.	.	.	.	.	.	.	.	.	.	.	.
8B-/J	.	8g/)	8c\J 8e	.	.	.	.	.	8c/)) 8e	-mij	de-	.	8G\	-brał	-vru-	.	.	.	.	.	8b-\	-mij	-si-	.
*v	*v	*	*	*	*	*	*	*	*	*	*	*	*	*	*	*	*	*	*	*	*	*	*	*
*	*v	*v	*	*	*	*	*	*	*	*	*	*	*	*	*	*	*	*	*	*	*	*	*
!!LO:PB:g=original	!	!	!	!	!	!	!	!	!	!	!	!	!	!	!	!	!	!	!	!	!	!
!!LO:REH:t=85
=13	=13	=13	=13	=13	=13	=13	=13	=13	=13	=13	=13	=13	=13	=13	=13	=13	=13	=13	=13	=13	=13	=13
*M12/8	*M12/8	*	*yyM12/8	*	*	*	*M12/8	*	*	*	*M12/8	*	*	*	*M12/8	*	*	*	*M12/8	*	*	*
8CC^>/L 8C	[4.c/ [4.f [4.a [4.cc	.	1.ryy	.	.	.	8c/ 8f	rad,	-stin.	.	8c\	świat.	-man.	.	1.r	.	.	.	8a/	rad!	-tà.	.
8C/ 8F 8A	.	.	.	.	.	.	8f/ 8a	Le-	Di	.	8r	.	.	.	.	.	.	.	8r	.	.	.
8C/J 8F 8A	.	.	.	.	.	.	8f/ 8a	-sze	quel	.	8c\	Z roz-	Le	.	.	.	.	.	8r	.	.	.
8C\ 8F 8A	8c/L] 8f] 8a] 8cc]	.	.	.	.	.	8f/ 8a	tu	mal	.	(8c\L	-pa-	trac-	.	.	.	.	.	4r	.	.	.
8r	8a/	.	.	.	.	.	8r	.	.	.	8A\J)	.	.	.	.	.	.	.	.	.	.	.
8r	8b-/J	.	.	.	.	.	8r	.	.	.	8B-\	-czy	-cie	.	.	.	.	.	8r	.	.	.
!	!LO:TX:b:t=cre_scen_do:dur=2q8es:ext=ud:problem:text with extention lines	!	!	!	!	!	!	!	!	!	!	!	!	!	!	!	!	!	!	!	!	!
8CC/L 8C	[4.c/ [4.f [4.a [4.cc	<	.	.	.	.	8r	.	.	.	[4.c\	sza-	sue	.	.	.	.	.	2.r	.	.	.
8C/ 8F 8A	.	.	.	.	.	.	8f/ 8a	bły-	gius-	.	.	.	.	.	.	.	.	.	.	.	.	.
8C/J 8F 8A	.	.	.	.	.	.	8f/ 8a	-sną	-to il	.	.	.	.	.	.	.	.	.	.	.	.	.
8C\ 8F 8A	8c/L] 8f] 8a] 8cc]	.	.	.	.	.	8f/ 8a	dni	ciel	.	8c\]	.	.	.	.	.	.	.	.	.	.	.
8r	8bn/	.	.	.	.	.	8r	.	.	.	8Bn\	-łem	cer-	.	.	.	.	.	.	.	.	.
8r	8cc/J	.	.	.	.	.	8r	.	.	.	8c\	Co	-co in-	.	.	.	.	.	.	.	.	.
=14	=14	=14	=14	=14	=14	=14	=14	=14	=14	=14	=14	=14	=14	=14	=14	=14	=14	=14	=14	=14	=14	=14
*	*	*	*	*	*	*	*^	*	*	*	*	*	*	*	*	*	*	*	*	*	*	*
8CC-X/L 8C-X	[4.d-X/ [4.f [4.a-X [4.dd-X	.	1.ryy	.	.	.	8r	1ryy	.	.	.	[4.d-X\	wgro-	-van	.	2.r	.	.	.	2.r	.	.	.
8C-/ 8F 8A-X	.	.	.	.	.	.	8f/ 8a-X	.	Ach	giu-	.	.	.	.	.	.	.	.	.	.	.	.	.
8C-/J 8F 8A-	.	.	.	.	.	.	8f/ 8a-	.	współ-	-sto il	.	.	.	.	.	.	.	.	.	.	.	.	.
8C-\ 8F 8A-	8d-/L] 8f] 8a-] 8dd-]	.	.	.	.	.	4f/ 4a-	.	-czu-	ciel	.	8d-\]	.	.	.	.	.	.	.	.	.	.	.
8r	8ccn/	.	.	.	.	.	.	.	.	.	.	8c\	-bie	le	.	.	.	.	.	.	.	.	.
8r	8dd-/J	.	.	.	.	.	8f/ 8a-	.	-cie	da-	.	8d-\	ma	sue	.	.	.	.	.	.	.	.	.
*	*	*	*	*	*	*	*	*	*	*	*	*	*	*	*	*	*	*	*	*	*	*	*
*tremolo	*	*	*	*	*	*	*	*	*	*	*	*	*	*	*	*	*	*	*	*	*	*	*
8BB-\L 8F 8A-	8.dn/L 8.f 8.b- 8.ddn	.	.	.	.	.	4f/ 4b-	.	na-	-rà,	.	8dn\	kres,	trac-	.	4r	.	.	.	4r	.	.	.
8BB-\ 8F 8A-	.	.	.	.	.	.	.	.	.	.	.	8c#X\	Me-	-cie	.	.	.	.	.	.	.	.	.
.	16cc#X/K	.	.	.	.	.	.	.	.	.	.	.	.	.	.	.	.	.	.	.	.	.	.
8BB-\J 8F 8A-	8dd/J	[	.	.	.	.	8f/ 8b-	8ryy	-sze	com-	.	8d\	-go	io	.	8r	.	.	.	8r	.	.	.
*	*	*	*	*	*	*	*	*	*	*	*	*	*	*	*	*	*	*	*	*	*	*	*
8BB-^\L 8G 8B-	8e/L 8g 8dd-X 8ee	.	.	.	.	.	8b-/L 8dd-X	8e\L	przyj-	-pen-	.	8.e\	Skar-	cer-	.	4r	.	.	.	4r	.	.	.
8AA-X^\ 8A-X	8f/ 8cc# 8ff	.	.	.	.	.	8cc/J	8f\J	.	.	.	.	.	.	.	.	.	.	.	.	.	.	.
.	.	.	.	.	.	.	.	.	.	.	.	16d\	-bu	-co	.	.	.	.	.	.	.	.	.
8GG^\J 8G	8g/J 8cc# 8ee 8gg	.	.	.	.	.	8cc/	8g\	-mij	-so an-	.	8e\	szu-	in-	.	8c\	Przyjm	An-	.	8cc\	Przyjm	An-	.
*	*	*	*	*	*	*	*v	*v	*	*	*	*	*	*	*	*	*	*	*	*	*	*	*
!!LO:LB:g=original	!	!	!	!	!	!	!	!	!	!	!	!	!	!	!	!	!	!	!	!	!	!
=15	=15	=15	=15	=15	=15	=15	=15	=15	=15	=15	=15	=15	=15	=15	=15	=15	=15	=15	=15	=15	=15	=15
!	!LO:TX:b:i:t=tutta la forza	!	!	!	!	!	!	!	!	!	!	!	!	!	!	!	!	!	!	!	!	!
!	!LO:TX:a:B:t=Più mosso.	!	!	!	!	!	!	!	!	!LO:DY:a	!	!	!	!LO:DY:a	!	!	!	!LO:DY:a	!LO:TX:a:B:t=Un poco più mosso.	!	!	!LO:DY:a
*ped	*	*	*	*	*	*	*	*	*	*	*	*	*	*	*	*	*	*	*	*	*	*
32DD/LLL 32BBn 32Dn	[2.a\ [>2.bn [2.ddn [2.aa-X	ff	1.ryy	.	.	.	[1.f [1.a-X [1.ddn	rad!	-cor.	ff	1.f	-ka-	-van.	ff	[1.Bn	rad!	-cor!	ff	[1.ff	rad!	-cor!	ff
32F/	.	.	.	.	.	.	.	.	.	.	.	.	.	.	.	.	.	.	.	.	.	.
32DD/ 32BB 32D	.	.	.	.	.	.	.	.	.	.	.	.	.	.	.	.	.	.	.	.	.	.
32F/	.	.	.	.	.	.	.	.	.	.	.	.	.	.	.	.	.	.	.	.	.	.
32DD/ 32BB 32D	.	.	.	.	.	.	.	.	.	.	.	.	.	.	.	.	.	.	.	.	.	.
32F/	.	.	.	.	.	.	.	.	.	.	.	.	.	.	.	.	.	.	.	.	.	.
32DD/ 32BB 32D	.	.	.	.	.	.	.	.	.	.	.	.	.	.	.	.	.	.	.	.	.	.
32F/	.	.	.	.	.	.	.	.	.	.	.	.	.	.	.	.	.	.	.	.	.	.
32DD/ 32BB 32D	.	.	.	.	.	.	.	.	.	.	.	.	.	.	.	.	.	.	.	.	.	.
32F/	.	.	.	.	.	.	.	.	.	.	.	.	.	.	.	.	.	.	.	.	.	.
32DD/ 32BB 32D	.	.	.	.	.	.	.	.	.	.	.	.	.	.	.	.	.	.	.	.	.	.
32F/	.	.	.	.	.	.	.	.	.	.	.	.	.	.	.	.	.	.	.	.	.	.
32DD/ 32BB 32D	.	.	.	.	.	.	.	.	.	.	.	.	.	.	.	.	.	.	.	.	.	.
32F/	.	.	.	.	.	.	.	.	.	.	.	.	.	.	.	.	.	.	.	.	.	.
32DD/ 32BB 32D	.	.	.	.	.	.	.	.	.	.	.	.	.	.	.	.	.	.	.	.	.	.
32F/	.	.	.	.	.	.	.	.	.	.	.	.	.	.	.	.	.	.	.	.	.	.
32DD/ 32BB 32D	.	.	.	.	.	.	.	.	.	.	.	.	.	.	.	.	.	.	.	.	.	.
32F/	.	.	.	.	.	.	.	.	.	.	.	.	.	.	.	.	.	.	.	.	.	.
32DD/ 32BB 32D	.	.	.	.	.	.	.	.	.	.	.	.	.	.	.	.	.	.	.	.	.	.
32F/	.	.	.	.	.	.	.	.	.	.	.	.	.	.	.	.	.	.	.	.	.	.
32DD/ 32BB 32D	.	.	.	.	.	.	.	.	.	.	.	.	.	.	.	.	.	.	.	.	.	.
32F/	.	.	.	.	.	.	.	.	.	.	.	.	.	.	.	.	.	.	.	.	.	.
32DD/ 32BB 32D	.	.	.	.	.	.	.	.	.	.	.	.	.	.	.	.	.	.	.	.	.	.
*	*	*	*	*	*	*	*	*	*	*	*	*	*	*	*	*	*	*	*	*	*	*
32F/JJJ	.	.	.	.	.	.	.	.	.	.	.	.	.	.	.	.	.	.	.	.	.	.
*Xped	*	*	*	*	*	*	*	*	*	*	*	*	*	*	*	*	*	*	*	*	*	*
*Xtremolo	*	*	*	*	*	*	*	*	*	*	*	*	*	*	*	*	*	*	*	*	*	*
8FF^\L 8BB 8D 8F	8a\L] 8b] 8dd] 8aa-]	.	.	.	.	.	.	.	.	.	.	.	.	.	.	.	.	.	.	.	.	.
8F^\ 8A 8B- 8d	8a^\ 8gg	.	.	.	.	.	.	.	.	.	.	.	.	.	.	.	.	.	.	.	.	.
8F^\J 8A 8B- 8d	8a^\J 8ff	.	.	.	.	.	.	.	.	.	.	.	.	.	.	.	.	.	.	.	.	.
8F^\L 8A 8B- 8d	8dd^\L 8ddd	.	.	.	.	.	.	.	.	.	.	.	.	.	.	.	.	.	.	.	.	.
8F^\ 8A 8B- 8d	8b^\ 8bbn	.	.	.	.	.	.	.	.	.	.	.	.	.	.	.	.	.	.	.	.	.
8F^\J 8A 8B- 8d	8a^\J 8aa-	.	.	.	.	.	.	.	.	.	.	.	.	.	.	.	.	.	.	.	.	.
=16	=16	=16	=16	=16	=16	=16	=16	=16	=16	=16	=16	=16	=16	=16	=16	=16	=16	=16	=16	=16	=16	=16
*	*	*	*	*	*	*	*^	*	*	*	*	*	*	*	*	*	*	*	*	*	*	*
8F\L 8A 8B- 8d	8g^\L 8gg	.	1.ryy	.	.	.	4dd/]	4f\] 4a-]	.	.	.	4F\	-łem!	.	.	4B\]	.	.	.	4ff\]	.	.	.
8F\ 8A 8B- 8d	8f^\ 8ff	.	.	.	.	.	.	.	.	.	.	.	.	.	.	.	.	.	.	.	.	.	.
8F\J 8A 8B- 8d	8dd^\J	.	.	.	.	.	8r	1ryy	.	.	.	8r	.	.	.	8r	.	.	.	8r	.	.	.
!	!	!LO:HP:b:t=dimin.	!	!	!	!	!	!	!	!	!	!	!	!	!	!	!	!	!	!	!	!	!
8F\L 8A 8B- 8d	8bn^>/L	>	.	.	.	.	4r	.	.	.	.	4r	.	.	.	4r	.	.	.	4r	.	.	.
8AA-X\ 8A-X	8a-X^>/	.	.	.	.	.	.	.	.	.	.	.	.	.	.	.	.	.	.	.	.	.	.
8GG\J 8G	8g^>/J	.	.	.	.	.	8r	.	.	.	.	8r	.	.	.	8r	.	.	.	8r	.	.	.
8FF/L 8F	8f^/L	.	.	.	.	.	2.r	.	.	.	.	4r	.	.	.	2.r	.	.	.	2.r	.	.	.
8DD/ 8D	8d^/	.	.	.	.	.	.	.	.	.	.	.	.	.	.	.	.	.	.	.	.	.	.
8BBBn/J 8BBn	8Bn^/J	.	.	.	.	.	.	.	.	.	.	8r	.	.	.	.	.	.	.	.	.	.	.
8AAA-X/L 8AA-	8A-X^/L	.	.	.	.	.	.	.	.	.	.	4r	.	.	.	.	.	.	.	.	.	.	.
8FFF/ 8FF	8F^/	.	.	.	.	.	.	4ryy	.	.	.	.	.	.	.	.	.	.	.	.	.	.	.
8GGG/J 8GG	8G^/J	.	.	.	.	.	.	.	.	.	.	8r	.	.	.	.	.	.	.	.	.	.	.
*	*	*	*	*	*	*	*v	*v	*	*	*	*	*	*	*	*	*	*	*	*	*	*	*
!!LO:PB:g=original	!	!	!	!	!	!	!	!	!	!	!	!	!	!	!	!	!	!	!	!	!	!
=17||	=17||	=17||	=17||	=17||	=17||	=17||	=17||	=17||	=17||	=17||	=17||	=17||	=17||	=17||	=17||	=17||	=17||	=17||	=17||	=17||	=17||	=17||
*k[b-e-a-d-]	*k[b-e-a-d-]	*	*k[b-e-a-d-]	*	*	*	*k[b-e-a-d-]	*	*	*	*k[b-e-a-d-]	*	*	*	*k[b-e-a-d-]	*	*	*	*k[b-e-a-d-]	*	*	*
*M3/8	*M3/8	*	*M3/8	*	*	*	*M3/8	*	*	*	*M3/8	*	*	*	*M3/8	*	*	*	*M3/8	*	*	*
*tremolo	*	*	*	*	*	*	*	*	*	*	*	*	*	*	*	*	*	*	*	*	*	*
!	!	!	!	!	!	!	!	!	!	!	!LO:TX:a:B:t=Tempo I ma un poco più lento.	!	!	!	!	!	!	!	!	!	!	!
!LO:TX:a:i:t=trem.	!LO:TX:a:B:t=Tempo I ma un poco più lento.	!	!LO:TX:a:t=Alti.	!	!	!	!LO:TX:a:t=Soprani.	!	!	!	!LO:TX:a:t=Dżares. (Urywam głosem)	!	!	!	!	!	!	!	!	!	!	!
!	!	!	!	!	!	!	!	!	!	!	!LO:TX:a:i:t=Djares. (con voce interrotta)	!	!	!	!	!	!	!	!	!	!	!
*	*	*	*	*	*	*	*	*	*	*	*	*	*	*	*	*	*	*	*	*	*	*
32AAA-/LLL 32AA-	(>4.c/ 4.e- 4.a-	pp	4.r	.	.	.	8r	.	.	.	4.r	.	.	.	4.ryy	.	.	.	4.ryy	.	.	.
32AAA-/ 32AA-	.	.	.	.	.	.	.	.	.	.	.	.	.	.	.	.	.	.	.	.	.	.
32AAA-/ 32AA-	.	.	.	.	.	.	.	.	.	.	.	.	.	.	.	.	.	.	.	.	.	.
32AAA-/JJJ 32AA-	.	.	.	.	.	.	.	.	.	.	.	.	.	.	.	.	.	.	.	.	.	.
!LO:TX:t=P:problem: tremolo połączone belką z 8AAA-	!	!	!	!	!	!	!	!	!	!LO:DY:a	!	!	!	!	!	!	!	!	!	!	!	!
8AAA-/	.	.	.	.	.	.	8c/ 8e-	Ko-	Chi	pp	.	.	.	.	.	.	.	.	.	.	.	.
8r	.	.	.	.	.	.	8c/ 8e-	-góż	non	.	.	.	.	.	.	.	.	.	.	.	.	.
=18	=18	=18	=18	=18	=18	=18	=18	=18	=18	=18	=18	=18	=18	=18	=18	=18	=18	=18	=18	=18	=18	=18
!LO:TX:a:i:t=segue	!	!	!	!	!	!	!	!	!	!	!	!	!	!	!	!	!	!	!	!	!	!
32AAA-/LLL 32AA-	4.Bn/ 4.dn 4.f	.	8r	.	.	.	8Bn/ 8dn	ję-	sen-	.	4.r	.	.	.	4.ryy	.	.	.	4.ryy	.	.	.
32AAA-/ 32AA-	.	.	.	.	.	.	.	.	.	.	.	.	.	.	.	.	.	.	.	.	.	.
32AAA-/ 32AA-	.	.	.	.	.	.	.	.	.	.	.	.	.	.	.	.	.	.	.	.	.	.
32AAA-/JJJ 32AA-	.	.	.	.	.	.	.	.	.	.	.	.	.	.	.	.	.	.	.	.	.	.
!LO:TX:t=P:problem: tremolo połączone belką z 8AAA-	!	!	!	!	!	!LO:DY:a	!	!	!	!	!	!	!	!	!	!	!	!	!	!	!	!
8AAA-/	.	.	8Bn/ 8dn	Strasz-	Chi	pp	8B/ 8d	-ki	-te	.	.	.	.	.	.	.	.	.	.	.	.	.
8r	.	.	8B/ 8d	-ne	non	.	8r	.	.	.	.	.	.	.	.	.	.	.	.	.	.	.
=19	=19	=19	=19	=19	=19	=19	=19	=19	=19	=19	=19	=19	=19	=19	=19	=19	=19	=19	=19	=19	=19	=19
32AAA-/LLL 32AA-	4.c/ 4.e- 4.a-	.	8c/ 8e-	ję-	sen-	.	8r	.	.	.	4.r	.	.	.	4.ryy	.	.	.	4.ryy	.	.	.
32AAA-/ 32AA-	.	.	.	.	.	.	.	.	.	.	.	.	.	.	.	.	.	.	.	.	.	.
32AAA-/ 32AA-	.	.	.	.	.	.	.	.	.	.	.	.	.	.	.	.	.	.	.	.	.	.
32AAA-/JJJ 32AA-	.	.	.	.	.	.	.	.	.	.	.	.	.	.	.	.	.	.	.	.	.	.
!LO:TX:t=P:problem: tremolo połączone belką z 8AAA-	!	!	!	!	!	!	!	!	!	!	!	!	!	!	!	!	!	!	!	!	!	!
8AAA-/	.	.	8c/ 8e-	-ki	-te	.	8c/ 8e-	te	pie-	.	.	.	.	.	.	.	.	.	.	.	.	.
8r	.	.	8r	.	.	.	8c/ 8e-	nie	-tà in	.	.	.	.	.	.	.	.	.	.	.	.	.
=20	=20	=20	=20	=20	=20	=20	=20	=20	=20	=20	=20	=20	=20	=20	=20	=20	=20	=20	=20	=20	=20	=20
32AAA-/LLL 32AA-	4.Bn/) 4.dn 4.f	.	8r	.	.	.	8Bn/ 8dn	wzru-	co-	.	8r	.	.	.	4.ryy	.	.	.	4.ryy	.	.	.
32AAA-/ 32AA-	.	.	.	.	.	.	.	.	.	.	.	.	.	.	.	.	.	.	.	.	.	.
32AAA-/ 32AA-	.	.	.	.	.	.	.	.	.	.	.	.	.	.	.	.	.	.	.	.	.	.
32AAA-/JJJ 32AA-	.	.	.	.	.	.	.	.	.	.	.	.	.	.	.	.	.	.	.	.	.	.
!LO:TX:t=P:problem: tremolo połączone belką z 8AAA-	!	!	!	!	!	!	!	!	!	!	!	!	!	!LO:DY:a	!	!	!	!	!	!	!	!
8AAA-/	.	.	8Bn/ 8dn	stra-	pie-	.	8B/ 8d	-szą!	-re!	.	8F\	Pró-	Quel	p	.	.	.	.	.	.	.	.
8r	.	.	8B/ 8d	-szne	-ta in	.	8r	.	.	.	8G\	-żno	te-	.	.	.	.	.	.	.	.	.
=21	=21	=21	=21	=21	=21	=21	=21	=21	=21	=21	=21	=21	=21	=21	=21	=21	=21	=21	=21	=21	=21	=21
32AAA-/LLL 32AA-	4.c/ 4.e- 4.a-	.	8c/ 8e-	łzy!	cor!	.	4.r	.	.	.	16A-\	cho-	-so-	.	4.ryy	.	.	.	4.ryy	.	.	.
32AAA-/ 32AA-	.	.	.	.	.	.	.	.	.	.	.	.	.	.	.	.	.	.	.	.	.	.
32AAA-/ 32AA-	.	.	.	.	.	.	.	.	.	.	16A-\	-dzę	-ro	.	.	.	.	.	.	.	.	.
32AAA-/JJJ 32AA-	.	.	.	.	.	.	.	.	.	.	.	.	.	.	.	.	.	.	.	.	.	.
!LO:TX:t=P:problem: tremolo połączone belką z 8AAA-	!	!	!	!	!	!	!	!	!	!	!	!	!	!	!	!	!	!	!	!	!	!
8AAA-/	.	.	8r	.	.	.	.	.	.	.	8.r	.	.	.	.	.	.	.	.	.	.	.
8r	.	.	8r	.	.	.	.	.	.	.	.	.	.	.	.	.	.	.	.	.	.	.
.	.	.	.	.	.	.	.	.	.	.	16A-\	już	ra-	.	.	.	.	.	.	.	.	.
=22	=22	=22	=22	=22	=22	=22	=22	=22	=22	=22	=22	=22	=22	=22	=22	=22	=22	=22	=22	=22	=22	=22
32AAA-/LLL 32AA-	4.Bn/ 4.dn 4.f	.	4.r	.	.	.	4.r	.	.	.	8.A-\	w o-	-pi-	.	4.ryy	.	.	.	4.ryy	.	.	.
32AAA-/ 32AA-	.	.	.	.	.	.	.	.	.	.	.	.	.	.	.	.	.	.	.	.	.	.
32AAA-/ 32AA-	.	.	.	.	.	.	.	.	.	.	.	.	.	.	.	.	.	.	.	.	.	.
32AAA-/JJJ 32AA-	.	.	.	.	.	.	.	.	.	.	.	.	.	.	.	.	.	.	.	.	.	.
!LO:TX:t=P:problem: tremolo połączone belką z 8AAA-	!	!	!	!	!	!	!	!	!	!	!	!	!	!	!	!	!	!	!	!	!	!
8AAA-/	.	.	.	.	.	.	.	.	.	.	.	.	.	.	.	.	.	.	.	.	.	.
.	.	.	.	.	.	.	.	.	.	.	16G\	-czach	-to	.	.	.	.	.	.	.	.	.
8r	.	.	.	.	.	.	.	.	.	.	8F\	się	mi	.	.	.	.	.	.	.	.	.
=23	=23	=23	=23	=23	=23	=23	=23	=23	=23	=23	=23	=23	=23	=23	=23	=23	=23	=23	=23	=23	=23	=23
32AAA-/LLL 32AA-	4.c/ 4.e- 4.a-	.	4.r	.	.	.	4.r	.	.	.	8A-\	ćmi.	fu.	.	4.ryy	.	.	.	4.ryy	.	.	.
32AAA-/ 32AA-	.	.	.	.	.	.	.	.	.	.	.	.	.	.	.	.	.	.	.	.	.	.
32AAA-/ 32AA-	.	.	.	.	.	.	.	.	.	.	.	.	.	.	.	.	.	.	.	.	.	.
32AAA-/JJJ 32AA-	.	.	.	.	.	.	.	.	.	.	.	.	.	.	.	.	.	.	.	.	.	.
!LO:TX:t=P:problem: tremolo połączone belką z 8AAA-	!	!	!	!	!	!	!	!	!	!	!	!	!	!	!	!	!	!	!	!	!	!
8AAA-/	.	.	.	.	.	.	.	.	.	.	8r	.	.	.	.	.	.	.	.	.	.	.
8r	.	.	.	.	.	.	.	.	.	.	8r	.	.	.	.	.	.	.	.	.	.	.
!!LO:LB:g=original	!	!	!	!	!	!	!	!	!	!	!	!	!	!	!	!	!	!	!	!	!	!
=24	=24	=24	=24	=24	=24	=24	=24	=24	=24	=24	=24	=24	=24	=24	=24	=24	=24	=24	=24	=24	=24	=24
32AAA-/LLL 32AA-	4.Bn/ 4.dn 4.f	.	4.ryy	.	.	.	4.ryy	.	.	.	8F\	Ból	Pri-	.	4.ryy	.	.	.	4.r	.	.	.
32AAA-/ 32AA-	.	.	.	.	.	.	.	.	.	.	.	.	.	.	.	.	.	.	.	.	.	.
32AAA-/ 32AA-	.	.	.	.	.	.	.	.	.	.	.	.	.	.	.	.	.	.	.	.	.	.
32AAA-/JJJ 32AA-	.	.	.	.	.	.	.	.	.	.	.	.	.	.	.	.	.	.	.	.	.	.
!LO:TX:t=P:problem: tremolo połączone belką z 8AAA-	!	!	!	!	!	!	!	!	!	!	!	!	!	!	!	!	!	!	!	!	!	!
8AAA-/	.	.	.	.	.	.	.	.	.	.	8.F\	drę-	-vo	.	.	.	.	.	.	.	.	.
8r	.	.	.	.	.	.	.	.	.	.	.	.	.	.	.	.	.	.	.	.	.	.
.	.	.	.	.	.	.	.	.	.	.	16G\	-czy	di	.	.	.	.	.	.	.	.	.
=25	=25	=25	=25	=25	=25	=25	=25	=25	=25	=25	=25	=25	=25	=25	=25	=25	=25	=25	=25	=25	=25	=25
32AAA-/LLL 32AA-	4.c/ 4.e- 4.a-	.	4.ryy	.	.	.	4.ryy	.	.	.	16A-\	sro-	spe-	.	4.ryy	.	.	.	4.r	.	.	.
32AAA-/ 32AA-	.	.	.	.	.	.	.	.	.	.	.	.	.	.	.	.	.	.	.	.	.	.
32AAA-/ 32AA-	.	.	.	.	.	.	.	.	.	.	16A-\	-dze	-me	.	.	.	.	.	.	.	.	.
32AAA-/JJJ 32AA-	.	.	.	.	.	.	.	.	.	.	.	.	.	.	.	.	.	.	.	.	.	.
!LO:TX:t=P:problem: tremolo połączone belką z 8AAA-	!	!	!	!	!	!	!	!	!	!	!	!	!	!	!	!	!	!	!	!	!	!
8AAA-/	.	.	.	.	.	.	.	.	.	.	8r	.	.	.	.	.	.	.	.	.	.	.
8r	.	.	.	.	.	.	.	.	.	.	16A-\LL	Lud	lo	.	.	.	.	.	.	.	.	.
.	.	.	.	.	.	.	.	.	.	.	16B-\JJ	.	.	.	.	.	.	.	.	.	.	.
=26	=26	=26	=26	=26	=26	=26	=26	=26	=26	=26	=26	=26	=26	=26	=26	=26	=26	=26	=26	=26	=26	=26
32FFF/LLL 32FF	4.c/ 4.f 4.a- [4.cc	.	4.ryy	.	.	.	4.ryy	.	.	.	8.c\	głu-	cer-	.	4.ryy	.	.	.	4.r	.	.	.
32FFF/ 32FF	.	.	.	.	.	.	.	.	.	.	.	.	.	.	.	.	.	.	.	.	.	.
32FFF/ 32FF	.	.	.	.	.	.	.	.	.	.	.	.	.	.	.	.	.	.	.	.	.	.
32FFF/JJJ 32FF	.	.	.	.	.	.	.	.	.	.	.	.	.	.	.	.	.	.	.	.	.	.
!LO:TX:t=P:problem: tremolo połączone belką z 8FFF	!	!	!	!	!	!	!	!	!	!	!	!	!	!	!	!	!	!	!	!	!	!
8FFF/	.	.	.	.	.	.	.	.	.	.	.	.	.	.	.	.	.	.	.	.	.	.
.	.	.	.	.	.	.	.	.	.	.	16A-\	-chy	-co	.	.	.	.	.	.	.	.	.
8r	.	.	.	.	.	.	.	.	.	.	8F\	na	tut-	.	.	.	.	.	.	.	.	.
=27	=27	=27	=27	=27	=27	=27	=27	=27	=27	=27	=27	=27	=27	=27	=27	=27	=27	=27	=27	=27	=27	=27
32CC/LLL 32C	4c/ 4g 4cc]	.	4.ryy	.	.	.	4.ryy	.	.	.	4.G\	łzy	-tor,	.	4.ryy	.	.	.	4.r	.	.	.
32CC/ 32C	.	.	.	.	.	.	.	.	.	.	.	.	.	.	.	.	.	.	.	.	.	.
32CC/ 32C	.	.	.	.	.	.	.	.	.	.	.	.	.	.	.	.	.	.	.	.	.	.
32CC/JJJ 32C	.	.	.	.	.	.	.	.	.	.	.	.	.	.	.	.	.	.	.	.	.	.
!LO:TX:t=P:problem: tremolo połączone belką z 8CC	!	!	!	!	!	!	!	!	!	!	!	!	!	!	!	!	!	!	!	!	!	!
8CC/	.	.	.	.	.	.	.	.	.	.	.	.	.	.	.	.	.	.	.	.	.	.
8r	8r	.	.	.	.	.	.	.	.	.	.	.	.	.	.	.	.	.	.	.	.	.
=28	=28	=28	=28	=28	=28	=28	=28	=28	=28	=28	=28	=28	=28	=28	=28	=28	=28	=28	=28	=28	=28	=28
(4.f\	4.cc\ 4.ff 4.aa-	ppp	4.ryy	.	.	.	4.ryy	.	.	.	8F\	z ni-	san-	.	4.ryy	.	.	.	4.r	.	.	.
.	.	.	.	.	.	.	.	.	.	.	8A-\	-knął	-gui-	.	.	.	.	.	.	.	.	.
.	.	.	.	.	.	.	.	.	.	.	8B-\	skarb	-na e	.	.	.	.	.	.	.	.	.
=29	=29	=29	=29	=29	=29	=29	=29	=29	=29	=29	=29	=29	=29	=29	=29	=29	=29	=29	=29	=29	=29	=29
!	!LO:TX:b:i:t=rallent.	!	!	!	!	!	!	!	!	!	!LO:TX:a:i:t=rallent.	!	!	!	!	!	!	!	!LO:TX:a:t=Neala.	!	!	!
!	!	!	!	!	!	!	!	!	!	!	!	!	!	!	!	!	!	!	!LO:TX:i:a:t=Neala.	!	!	!
4.c\	4.cc\ 4.ee-X 4.gg	.	4.ryy	.	.	.	4.ryy	.	.	.	8.c\	dro-	ge-	.	4.ryy	.	.	.	4.r	.	.	.
.	.	.	.	.	.	.	.	.	.	.	16c\	-gi,	-me	.	.	.	.	.	.	.	.	.
.	.	.	.	.	.	.	.	.	.	.	8c\	Nie	l`af-	.	.	.	.	.	.	.	.	.
=30	=30	=30	=30	=30	=30	=30	=30	=30	=30	=30	=30	=30	=30	=30	=30	=30	=30	=30	=30	=30	=30	=30
*	*^	*	*	*	*	*	*	*	*	*	*	*	*	*	*	*	*	*	*	*	*	*
4.F\)	4ff/	8a-\L 8cc	.	4.ryy	.	.	.	4.ryy	.	.	.	8e-\	doj-	-flit-	.	4.ryy	.	.	.	8r	.	.	.
.	.	8f\ 8a-	.	.	.	.	.	.	.	.	.	8d-\	-dę	-to	.	.	.	.	.	8r	.	.	.
.	8cc/	8e-\J 8g	.	.	.	.	.	.	.	.	.	8c\	gdzie	mio	.	.	.	.	.	8cc\	Ach	Il	.
*	*v	*v	*	*	*	*	*	*	*	*	*	*	*	*	*	*	*	*	*	*	*	*	*
!!LO:LB:g=original	!	!	!	!	!	!	!	!	!	!	!	!	!	!	!	!	!	!	!	!	!	!
=31	=31	=31	=31	=31	=31	=31	=31	=31	=31	=31	=31	=31	=31	=31	=31	=31	=31	=31	=31	=31	=31	=31
!	!LO:TX:a:i:t=a tempo piu lento	!	!	!	!	!	!LO:TX:b:i:t=(sfinito dal dolore, si accascia sulla panca.)	!	!	!	!	!	!	!	!	!	!	!	!	!	!	!
!	!	!	!	!	!	!	!LO:TX:a:t=(wysilony boleścią pada na ławkę.)	!	!	!	!	!	!	!	!	!	!	!	!LO:TX:a:i:t=a tempo piu lento	!	!	!
32FF/LLL	(>4.e-^/ 4.f [4.cc	.	4.ryy	.	.	.	4.r	.	.	.	[4.f\	ślad?...	cor.	.	4.ryy	.	.	.	[4.cc\	bied-	de-	.
32F/	.	.	.	.	.	.	.	.	.	.	.	.	.	.	.	.	.	.	.	.	.	.
32FF/	.	.	.	.	.	.	.	.	.	.	.	.	.	.	.	.	.	.	.	.	.	.
32F/	.	.	.	.	.	.	.	.	.	.	.	.	.	.	.	.	.	.	.	.	.	.
32FF/	.	.	.	.	.	.	.	.	.	.	.	.	.	.	.	.	.	.	.	.	.	.
32F/	.	.	.	.	.	.	.	.	.	.	.	.	.	.	.	.	.	.	.	.	.	.
32FF/	.	.	.	.	.	.	.	.	.	.	.	.	.	.	.	.	.	.	.	.	.	.
32F/	.	.	.	.	.	.	.	.	.	.	.	.	.	.	.	.	.	.	.	.	.	.
32FF/	.	.	.	.	.	.	.	.	.	.	.	.	.	.	.	.	.	.	.	.	.	.
32F/	.	.	.	.	.	.	.	.	.	.	.	.	.	.	.	.	.	.	.	.	.	.
32FF/	.	.	.	.	.	.	.	.	.	.	.	.	.	.	.	.	.	.	.	.	.	.
32F/JJJ	.	.	.	.	.	.	.	.	.	.	.	.	.	.	.	.	.	.	.	.	.	.
=32	=32	=32	=32	=32	=32	=32	=32	=32	=32	=32	=32	=32	=32	=32	=32	=32	=32	=32	=32	=32	=32	=32
*	*^	*	*	*	*	*	*	*	*	*	*	*	*	*	*	*	*	*	*	*	*	*
32FF/LLL	4dn/ 4cc]	4.f\	.	4.ryy	.	.	.	4.r	.	.	.	4.f\_	.	.	.	4.ryy	.	.	.	4cc\]	.	.	.
32F/	.	.	.	.	.	.	.	.	.	.	.	.	.	.	.	.	.	.	.	.	.	.	.
32FF/	.	.	.	.	.	.	.	.	.	.	.	.	.	.	.	.	.	.	.	.	.	.	.
32F/	.	.	.	.	.	.	.	.	.	.	.	.	.	.	.	.	.	.	.	.	.	.	.
32FF/	.	.	.	.	.	.	.	.	.	.	.	.	.	.	.	.	.	.	.	.	.	.	.
32F/	.	.	.	.	.	.	.	.	.	.	.	.	.	.	.	.	.	.	.	.	.	.	.
32FF/	.	.	.	.	.	.	.	.	.	.	.	.	.	.	.	.	.	.	.	.	.	.	.
32F/	.	.	.	.	.	.	.	.	.	.	.	.	.	.	.	.	.	.	.	.	.	.	.
32FF/	8d-X/) 8b-	.	.	.	.	.	.	.	.	.	.	.	.	.	.	.	.	.	.	8b-\	-ny	-re-	.
32F/	.	.	.	.	.	.	.	.	.	.	.	.	.	.	.	.	.	.	.	.	.	.	.
32FF/	.	.	.	.	.	.	.	.	.	.	.	.	.	.	.	.	.	.	.	.	.	.	.
32F/JJJ	.	.	.	.	.	.	.	.	.	.	.	.	.	.	.	.	.	.	.	.	.	.	.
=33	=33	=33	=33	=33	=33	=33	=33	=33	=33	=33	=33	=33	=33	=33	=33	=33	=33	=33	=33	=33	=33	=33	=33
32FF/LLL	(4b-/	4.c\ 4.f	.	4.ryy	.	.	.	4.r	.	.	.	4.f\_	.	.	.	4.ryy	.	.	.	4b-\	sta-	-lit-	.
32F/	.	.	.	.	.	.	.	.	.	.	.	.	.	.	.	.	.	.	.	.	.	.	.
32FF/	.	.	.	.	.	.	.	.	.	.	.	.	.	.	.	.	.	.	.	.	.	.	.
32F/	.	.	.	.	.	.	.	.	.	.	.	.	.	.	.	.	.	.	.	.	.	.	.
32FF/	.	.	.	.	.	.	.	.	.	.	.	.	.	.	.	.	.	.	.	.	.	.	.
32F/	.	.	.	.	.	.	.	.	.	.	.	.	.	.	.	.	.	.	.	.	.	.	.
32FF/	.	.	.	.	.	.	.	.	.	.	.	.	.	.	.	.	.	.	.	.	.	.	.
32F/	.	.	.	.	.	.	.	.	.	.	.	.	.	.	.	.	.	.	.	.	.	.	.
32FF/	8a-/)	.	.	.	.	.	.	.	.	.	.	.	.	.	.	.	.	.	.	8b-\	-rzec	-to ahi-	.
32F/	.	.	.	.	.	.	.	.	.	.	.	.	.	.	.	.	.	.	.	.	.	.	.
32FF/	.	.	.	.	.	.	.	.	.	.	.	.	.	.	.	.	.	.	.	.	.	.	.
32F/JJJ	.	.	.	.	.	.	.	.	.	.	.	.	.	.	.	.	.	.	.	.	.	.	.
=34	=34	=34	=34	=34	=34	=34	=34	=34	=34	=34	=34	=34	=34	=34	=34	=34	=34	=34	=34	=34	=34	=34	=34
32FF/LLL	(8a-/L	4.B-\ 4.d-	.	4.ryy	.	.	.	4.r	.	.	.	4f\]	.	.	.	4.ryy	.	.	.	8a-/L	o-	-mè	.
32F/	.	.	.	.	.	.	.	.	.	.	.	.	.	.	.	.	.	.	.	.	.	.	.
32FF/	.	.	.	.	.	.	.	.	.	.	.	.	.	.	.	.	.	.	.	.	.	.	.
32F/	.	.	.	.	.	.	.	.	.	.	.	.	.	.	.	.	.	.	.	.	.	.	.
32FF/	8g/	.	.	.	.	.	.	.	.	.	.	.	.	.	.	.	.	.	.	8g/J	.	è	.
32F/	.	.	.	.	.	.	.	.	.	.	.	.	.	.	.	.	.	.	.	.	.	.	.
32FF/	.	.	.	.	.	.	.	.	.	.	.	.	.	.	.	.	.	.	.	.	.	.	.
32F/	.	.	.	.	.	.	.	.	.	.	.	.	.	.	.	.	.	.	.	.	.	.	.
32FF/	8f/J)	.	.	.	.	.	.	.	.	.	.	8r	.	.	.	.	.	.	.	8f/	-błą-	de-	.
32F/	.	.	.	.	.	.	.	.	.	.	.	.	.	.	.	.	.	.	.	.	.	.	.
32FF/	.	.	.	.	.	.	.	.	.	.	.	.	.	.	.	.	.	.	.	.	.	.	.
32F/JJJ	.	.	.	.	.	.	.	.	.	.	.	.	.	.	.	.	.	.	.	.	.	.	.
*	*v	*v	*	*	*	*	*	*	*	*	*	*	*	*	*	*	*	*	*	*	*	*	*
*	*	*	*	*	*	*	*	*	*	*	*	*	*	*	*clefG2	*	*	*	*	*	*	*
=35	=35	=35	=35	=35	=35	=35	=35	=35	=35	=35	=35	=35	=35	=35	=35	=35	=35	=35	=35	=35	=35	=35
*	*	*	*	*	*	*	*^	*	*	*	*	*	*	*	*	*	*	*	*	*	*	*
!	!	!	!	!	!	!	!	!	!	!	!LO:DY:a	!	!	!	!	!LO:TX:a:i:t=Ratef.	!	!	!LO:DY:a	!	!	!	!
*	*tremolo	*	*	*	*	*	*	*	*	*	*	*	*	*	*	*	*	*	*	*	*	*	*
(4.FF/ 4.F	32c/LLL 32f	.	4.ryy	.	.	.	[4.a-/ [4.cc	[4.c\	Bie-	De-	pp	4.ryy	.	.	.	[4.f/	Bie-	De-	pp	[4.f/	-ka-	-men-	.
.	32A-/	.	.	.	.	.	.	.	.	.	.	.	.	.	.	.	.	.	.	.	.	.	.
.	32c/ 32f	.	.	.	.	.	.	.	.	.	.	.	.	.	.	.	.	.	.	.	.	.	.
.	32A-/	.	.	.	.	.	.	.	.	.	.	.	.	.	.	.	.	.	.	.	.	.	.
.	32c/ 32f	.	.	.	.	.	.	.	.	.	.	.	.	.	.	.	.	.	.	.	.	.	.
.	32A-/	.	.	.	.	.	.	.	.	.	.	.	.	.	.	.	.	.	.	.	.	.	.
.	32c/ 32f	.	.	.	.	.	.	.	.	.	.	.	.	.	.	.	.	.	.	.	.	.	.
.	32A-/	.	.	.	.	.	.	.	.	.	.	.	.	.	.	.	.	.	.	.	.	.	.
.	32c/ 32f	.	.	.	.	.	.	.	.	.	.	.	.	.	.	.	.	.	.	.	.	.	.
.	32A-/	.	.	.	.	.	.	.	.	.	.	.	.	.	.	.	.	.	.	.	.	.	.
.	32c/ 32f	.	.	.	.	.	.	.	.	.	.	.	.	.	.	.	.	.	.	.	.	.	.
.	32A-/JJJ	.	.	.	.	.	.	.	.	.	.	.	.	.	.	.	.	.	.	.	.	.	.
=36	=36	=36	=36	=36	=36	=36	=36	=36	=36	=36	=36	=36	=36	=36	=36	=36	=36	=36	=36	=36	=36	=36	=36
!	!	!	!	!	!	!	!	!	!	!	!	!	!	!	!	!LO:TX:a:t=Ratef.	!	!	!	!	!	!	!
8AAA-/L 8AA-	32c/LLL 32f	.	4.ryy	.	.	.	4a-/] 4cc]	4c\]	.	.	.	4.ryy	.	.	.	4f/]	.	.	.	(4.f/]	.	.	.
.	32A-/	.	.	.	.	.	.	.	.	.	.	.	.	.	.	.	.	.	.	.	.	.	.
.	32c/ 32f	.	.	.	.	.	.	.	.	.	.	.	.	.	.	.	.	.	.	.	.	.	.
.	32A-/	.	.	.	.	.	.	.	.	.	.	.	.	.	.	.	.	.	.	.	.	.	.
8BBB-/ 8BB-	32c/ 32f	.	.	.	.	.	.	.	.	.	.	.	.	.	.	.	.	.	.	.	.	.	.
.	32A-/	.	.	.	.	.	.	.	.	.	.	.	.	.	.	.	.	.	.	.	.	.	.
.	32c/ 32f	.	.	.	.	.	.	.	.	.	.	.	.	.	.	.	.	.	.	.	.	.	.
.	32A-/	.	.	.	.	.	.	.	.	.	.	.	.	.	.	.	.	.	.	.	.	.	.
8CC/J) 8C	32c/ 32f	.	.	.	.	.	8f/ 8a-	8c\	-dny	-gno è	.	.	.	.	.	8f/	-dny	-gno è	.	.	.	.	.
.	32A-/	.	.	.	.	.	.	.	.	.	.	.	.	.	.	.	.	.	.	.	.	.	.
.	32c/ 32f	.	.	.	.	.	.	.	.	.	.	.	.	.	.	.	.	.	.	.	.	.	.
.	32A-/JJJ	.	.	.	.	.	.	.	.	.	.	.	.	.	.	.	.	.	.	.	.	.	.
*	*	*	*	*	*	*	*v	*v	*	*	*	*	*	*	*	*	*	*	*	*	*	*	*
=37	=37	=37	=37	=37	=37	=37	=37	=37	=37	=37	=37	=37	=37	=37	=37	=37	=37	=37	=37	=37	=37	=37
(4.FFF/ 4.FF	32c/LLL 32f	.	4.ryy	.	.	.	4.A-/ 4.f	sta-	di	.	4.ryy	.	.	.	4.f/	sta-	di	.	4c/)	ny.	te.	.
.	32A-/	.	.	.	.	.	.	.	.	.	.	.	.	.	.	.	.	.	.	.	.	.
.	32c/ 32f	.	.	.	.	.	.	.	.	.	.	.	.	.	.	.	.	.	.	.	.	.
.	32A-/	.	.	.	.	.	.	.	.	.	.	.	.	.	.	.	.	.	.	.	.	.
.	32c/ 32f	.	.	.	.	.	.	.	.	.	.	.	.	.	.	.	.	.	.	.	.	.
.	32A-/	.	.	.	.	.	.	.	.	.	.	.	.	.	.	.	.	.	.	.	.	.
.	32c/ 32f	.	.	.	.	.	.	.	.	.	.	.	.	.	.	.	.	.	.	.	.	.
.	32A-/	.	.	.	.	.	.	.	.	.	.	.	.	.	.	.	.	.	.	.	.	.
.	32c/ 32f	.	.	.	.	.	.	.	.	.	.	.	.	.	.	.	.	.	8r	.	.	.
.	32A-/	.	.	.	.	.	.	.	.	.	.	.	.	.	.	.	.	.	.	.	.	.
.	32c/ 32f	.	.	.	.	.	.	.	.	.	.	.	.	.	.	.	.	.	.	.	.	.
.	32A-/JJJ	.	.	.	.	.	.	.	.	.	.	.	.	.	.	.	.	.	.	.	.	.
=38	=38	=38	=38	=38	=38	=38	=38	=38	=38	=38	=38	=38	=38	=38	=38	=38	=38	=38	=38	=38	=38	=38
8AAA-/L 8AA-	32c/LLL 32f	.	4.ryy	.	.	.	4.A-/ 4.f	-rzec	pie-	.	4.ryy	.	.	.	4.f/	-rzec	pie-	.	4.r	.	.	.
.	32A-/	.	.	.	.	.	.	.	.	.	.	.	.	.	.	.	.	.	.	.	.	.
.	32c/ 32f	.	.	.	.	.	.	.	.	.	.	.	.	.	.	.	.	.	.	.	.	.
.	32A-/	.	.	.	.	.	.	.	.	.	.	.	.	.	.	.	.	.	.	.	.	.
8BBB-/ 8BB-	32c/ 32f	.	.	.	.	.	.	.	.	.	.	.	.	.	.	.	.	.	.	.	.	.
.	32A-/	.	.	.	.	.	.	.	.	.	.	.	.	.	.	.	.	.	.	.	.	.
.	32c/ 32f	.	.	.	.	.	.	.	.	.	.	.	.	.	.	.	.	.	.	.	.	.
.	32A-/	.	.	.	.	.	.	.	.	.	.	.	.	.	.	.	.	.	.	.	.	.
8CC/J) 8C	32c/ 32f	.	.	.	.	.	.	.	.	.	.	.	.	.	.	.	.	.	.	.	.	.
.	32A-/	.	.	.	.	.	.	.	.	.	.	.	.	.	.	.	.	.	.	.	.	.
.	32c/ 32f	.	.	.	.	.	.	.	.	.	.	.	.	.	.	.	.	.	.	.	.	.
.	32A-/JJJ	.	.	.	.	.	.	.	.	.	.	.	.	.	.	.	.	.	.	.	.	.
=39||	=39||	=39||	=39||	=39||	=39||	=39||	=39||	=39||	=39||	=39||	=39||	=39||	=39||	=39||	=39||	=39||	=39||	=39||	=39||	=39||	=39||	=39||
*M4/4	*M4/4	*	*yyM4/4	*	*	*	*M4/4	*	*	*	*M4/4	*	*	*	*M4/4	*	*	*	*M4/4	*	*	*
*met(c)	*met(c)	*	*yymet(c)	*	*	*	*met(c)	*	*	*	*met(c)	*	*	*	*met(c)	*	*	*	*met(c)	*	*	*
!	!LO:TX:a:i:t=lento	!	!	!	!	!	!	!	!	!	!	!	!	!	!	!	!	!	!	!	!	!
2FFF;/ 2FF	1A-; 1c 1f	pp	1ryy	.	.	.	8A-/ 8f	ten.	-tà.	.	1ryy	.	.	.	8f/	ten.	-tà.	.	1r;	.	.	.
.	.	.	.	.	.	.	8r	.	.	.	.	.	.	.	8r	.	.	.	.	.	.	.
.	.	.	.	.	.	.	4r;	.	.	.	.	.	.	.	4r;	.	.	.	.	.	.	.
(4FF/ 4F	.	.	.	.	.	.	2r	.	.	.	.	.	.	.	2r	.	.	.	.	.	.	.
8.EE-/L 8.E-	.	.	.	.	.	.	.	.	.	.	.	.	.	.	.	.	.	.	.	.	.	.
16DD-/Jk) 16D-	.	.	.	.	.	.	.	.	.	.	.	.	.	.	.	.	.	.	.	.	.	.
=40	=40	=40	=40	=40	=40	=40	=40	=40	=40	=40	=40	=40	=40	=40	=40	=40	=40	=40	=40	=40	=40	=40
!	!	!	!	!	!	!	!	!	!	!	!	!	!	!	!	!	!	!	!LO:TX:a:B:t=Recit.	!	!	!
4DD-/ 4D-	4A-/ 4d- 4f	.	1ryy	.	.	.	1r	.	.	.	1ryy	.	.	.	1r	.	.	.	2r	.	.	.
!LO:TX:a:B:t=Recit.	!	!	!	!	!	!	!	!	!	!	!	!	!	!	!	!	!	!	!	!	!	!
4r	4r	.	.	.	.	.	.	.	.	.	.	.	.	.	.	.	.	.	.	.	.	.
!	!	!	!	!	!	!	!	!	!	!	!	!	!	!	!	!	!	!	!LO:TX:a:t=(do Dżaresa)	!	!	!
!	!	!	!	!	!	!	!	!	!	!	!	!	!	!	!	!	!	!	!LO:TX:a:i:t=(a Djares)	!	!	!
2r	2r	.	.	.	.	.	.	.	.	.	.	.	.	.	.	.	.	.	4f/	O-	Fre-	.
.	.	.	.	.	.	.	.	.	.	.	.	.	.	.	.	.	.	.	8f/	-chłoń	-na i	.
.	.	.	.	.	.	.	.	.	.	.	.	.	.	.	.	.	.	.	8g/	z bo-	sin-	.
!!LO:PB:g=original	!	!	!	!	!	!	!	!	!	!	!	!	!	!	!	!	!	!	!	!	!	!
=41	=41	=41	=41	=41	=41	=41	=41	=41	=41	=41	=41	=41	=41	=41	=41	=41	=41	=41	=41	=41	=41	=41
!	!	!	!	!	!	!	!	!	!	!	!	!	!	!	!	!	!	!	!LO:TX:a:t=Neala.	!	!	!
!	!	!	!	!	!	!	!	!	!	!	!	!	!	!	!	!	!	!	!LO:TX:a:i:t=Neala.	!	!	!
1r	1r	.	1ryy	.	.	.	1ryy	.	.	.	1ryy	.	.	.	1ryy	.	.	.	4cc\	-le-	-gul-	.
.	.	.	.	.	.	.	.	.	.	.	.	.	.	.	.	.	.	.	8a-/	-ści,	-ti.	.
.	.	.	.	.	.	.	.	.	.	.	.	.	.	.	.	.	.	.	16r	.	.	.
.	.	.	.	.	.	.	.	.	.	.	.	.	.	.	.	.	.	.	16a-/	za-	Rin-	.
.	.	.	.	.	.	.	.	.	.	.	.	.	.	.	.	.	.	.	8.a-/	-trzy-	-co-	.
.	.	.	.	.	.	.	.	.	.	.	.	.	.	.	.	.	.	.	16g/	-maj	-ra-	.
.	.	.	.	.	.	.	.	.	.	.	.	.	.	.	.	.	.	.	8a-/	się	-ti e	.
.	.	.	.	.	.	.	.	.	.	.	.	.	.	.	.	.	.	.	8b-/	tu	ri-	.
=42	=42	=42	=42	=42	=42	=42	=42	=42	=42	=42	=42	=42	=42	=42	=42	=42	=42	=42	=42	=42	=42	=42
4AAA-/ 4AA-	4A-/ 4c 4e-	p	1ryy	.	.	.	1ryy	.	.	.	1ryy	.	.	.	1ryy	.	.	.	4cc\	star-	-po-	.
4r	4r	.	.	.	.	.	.	.	.	.	.	.	.	.	.	.	.	.	8e-/	-cze!	-sa.	.
!	!	!	!	!	!	!	!	!	!	!	!	!	!	!	!	!	!	!	!LO:TX:a:t=(do chóru)	!	!	!
!	!	!	!	!	!	!	!	!	!	!	!	!	!	!	!	!	!	!	!LO:TX:a:i:t=(al coro)	!	!	!
.	.	.	.	.	.	.	.	.	.	.	.	.	.	.	.	.	.	.	16r	.	.	.
.	.	.	.	.	.	.	.	.	.	.	.	.	.	.	.	.	.	.	16cc\	My	E-	.
2r;	2r;	.	.	.	.	.	.	.	.	.	.	.	.	.	.	.	.	.	8a-/	pójdz-	-scia-	.
.	.	.	.	.	.	.	.	.	.	.	.	.	.	.	.	.	.	.	8e-/	-my.	-mo.	.
!	!	!	!	!	!	!	!	!	!	!	!	!	!	!	!	!	!	!	!LO:TX:a:t=(do Dzaresa)	!	!	!
!	!	!	!	!	!	!	!	!	!	!	!	!	!	!	!	!	!	!	!LO:TX:a:i:t=(a Djares)	!	!	!
.	.	.	.	.	.	.	.	.	.	.	.	.	.	.	.	.	.	.	8r;	.	.	.
.	.	.	.	.	.	.	.	.	.	.	.	.	.	.	.	.	.	.	8cc\	I-	I-	.
=43	=43	=43	=43	=43	=43	=43	=43	=43	=43	=43	=43	=43	=43	=43	=43	=43	=43	=43	=43	=43	=43	=43
*	*	*	*	*	*	*	*	*	*	*	*	*	*	*	*	*	*	*	*^	*	*	*
1B-	(2e-/ 2g	p	1ryy	.	.	.	1ryy	.	.	.	1ryy	.	.	.	1ryy	.	.	.	4.ee-\	2ryy	-da-	-da-	.
.	.	.	.	.	.	.	.	.	.	.	.	.	.	.	.	.	.	.	8g/	.	-mor	-mor	.
.	2A-/) 2dn 2f	.	.	.	.	.	.	.	.	.	.	.	.	.	.	.	.	.	4b-/	4b-\	przyj-	to-	.
.	.	.	.	.	.	.	.	.	.	.	.	.	.	.	.	.	.	.	8b-\	4ryy	.	-sto	.
.	.	.	.	.	.	.	.	.	.	.	.	.	.	.	.	.	.	.	8b-\	.	-dzie	ver-	.
*	*	*	*	*	*	*	*	*	*	*	*	*	*	*	*	*	*	*	*v	*v	*	*	*
=44	=44	=44	=44	=44	=44	=44	=44	=44	=44	=44	=44	=44	=44	=44	=44	=44	=44	=44	=44	=44	=44	=44
!	!LO:TX:a:i:t=a tempo molto moderato	!	!	!	!	!	!	!	!	!	!	!	!	!	!	!	!	!	!	!	!	!
!	!LO:TX:a:t=VI.	!	!	!	!	!	!	!	!	!	!	!	!	!	!	!	!	!	!LO:TX:a:t=(Odchodzi z Ratefem i Chórem)	!	!	!
!	!	!	!	!	!	!	!	!	!	!	!	!	!	!	!	!	!	!	!LO:TX:a:i:t=(Si allontana, seguita da Ratef e dalle bramine)	!	!	!
4EE-/	(16G/LL 16e-	.	1ryy	.	.	.	1ryy	.	.	.	1ryy	.	.	.	1ryy	.	.	.	4e-/	tu.	-rò.	.
.	16B-/	.	.	.	.	.	.	.	.	.	.	.	.	.	.	.	.	.	.	.	.	.
.	16e-/	.	.	.	.	.	.	.	.	.	.	.	.	.	.	.	.	.	.	.	.	.
.	16f/JJ	.	.	.	.	.	.	.	.	.	.	.	.	.	.	.	.	.	.	.	.	.
8r	16g/LL	.	.	.	.	.	.	.	.	.	.	.	.	.	.	.	.	.	4r	.	.	.
.	16a-/	.	.	.	.	.	.	.	.	.	.	.	.	.	.	.	.	.	.	.	.	.
!LO:TX:a:t=Fag.	!	!	!	!	!	!	!	!	!	!	!	!	!	!	!	!	!	!	!	!	!	!
([8E-\ 8G	16b-/	.	.	.	.	.	.	.	.	.	.	.	.	.	.	.	.	.	.	.	.	.
.	16d-X/JJ	.	.	.	.	.	.	.	.	.	.	.	.	.	.	.	.	.	.	.	.	.
4E-\]) 4A-	16c/LL	.	.	.	.	.	.	.	.	.	.	.	.	.	.	.	.	.	2r	.	.	.
.	16e-/	.	.	.	.	.	.	.	.	.	.	.	.	.	.	.	.	.	.	.	.	.
.	16a-/	.	.	.	.	.	.	.	.	.	.	.	.	.	.	.	.	.	.	.	.	.
.	16cc/JJ	.	.	.	.	.	.	.	.	.	.	.	.	.	.	.	.	.	.	.	.	.
(8.EE-/L 8.Dn	16b-/LL	.	.	.	.	.	.	.	.	.	.	.	.	.	.	.	.	.	.	.	.	.
.	16a-/	.	.	.	.	.	.	.	.	.	.	.	.	.	.	.	.	.	.	.	.	.
.	16g/	.	.	.	.	.	.	.	.	.	.	.	.	.	.	.	.	.	.	.	.	.
16F/Jk)	16f/JJ)	.	.	.	.	.	.	.	.	.	.	.	.	.	.	.	.	.	.	.	.	.
=45	=45	=45	=45	=45	=45	=45	=45	=45	=45	=45	=45	=45	=45	=45	=45	=45	=45	=45	=45	=45	=45	=45
*^	*	*	*	*	*	*	*	*	*	*	*	*	*	*	*	*	*	*	*	*	*	*
2ryy	2E-\ 2G\	(16e-/LL	.	1ryy	.	.	.	1ryy	.	.	.	1ryy	.	.	.	1ryy	.	.	.	1r	.	.	.
.	.	16f/	.	.	.	.	.	.	.	.	.	.	.	.	.	.	.	.	.	.	.	.	.
.	.	16g/	.	.	.	.	.	.	.	.	.	.	.	.	.	.	.	.	.	.	.	.	.
.	.	16f/JJ	.	.	.	.	.	.	.	.	.	.	.	.	.	.	.	.	.	.	.	.	.
.	.	16e-/LL	.	.	.	.	.	.	.	.	.	.	.	.	.	.	.	.	.	.	.	.	.
.	.	16dn/	.	.	.	.	.	.	.	.	.	.	.	.	.	.	.	.	.	.	.	.	.
.	.	16c/	.	.	.	.	.	.	.	.	.	.	.	.	.	.	.	.	.	.	.	.	.
.	.	16B-/JJ	.	.	.	.	.	.	.	.	.	.	.	.	.	.	.	.	.	.	.	.	.
2F/	(4E-\	16A-/LL	.	.	.	.	.	.	.	.	.	.	.	.	.	.	.	.	.	.	.	.	.
.	.	16c/	.	.	.	.	.	.	.	.	.	.	.	.	.	.	.	.	.	.	.	.	.
.	.	16f/	.	.	.	.	.	.	.	.	.	.	.	.	.	.	.	.	.	.	.	.	.
.	.	16e-/JJ	.	.	.	.	.	.	.	.	.	.	.	.	.	.	.	.	.	.	.	.	.
.	4BB-\)	16d/LL	.	.	.	.	.	.	.	.	.	.	.	.	.	.	.	.	.	.	.	.	.
.	.	16c/	.	.	.	.	.	.	.	.	.	.	.	.	.	.	.	.	.	.	.	.	.
.	.	16B-/	.	.	.	.	.	.	.	.	.	.	.	.	.	.	.	.	.	.	.	.	.
.	.	16A-/JJ)	.	.	.	.	.	.	.	.	.	.	.	.	.	.	.	.	.	.	.	.	.
*	*	*clefF4	*	*	*	*	*	*	*	*	*	*	*	*	*	*	*	*	*	*	*	*	*
=46	=46	=46	=46	=46	=46	=46	=46	=46	=46	=46	=46	=46	=46	=46	=46	=46	=46	=46	=46	=46	=46	=46	=46
!	!	!LO:TX:a:t=V-IIi.	!	!	!	!	!	!	!	!	!	!	!	!	!	!	!	!	!	!	!	!	!
4r	2EE-\	(16G\LL	.	1ryy	.	.	.	1ryy	.	.	.	1ryy	.	.	.	1ryy	.	.	.	1r	.	.	.
.	.	16BB-\	.	.	.	.	.	.	.	.	.	.	.	.	.	.	.	.	.	.	.	.	.
.	.	16E-\	.	.	.	.	.	.	.	.	.	.	.	.	.	.	.	.	.	.	.	.	.
.	.	16F\JJ	.	.	.	.	.	.	.	.	.	.	.	.	.	.	.	.	.	.	.	.	.
8r	.	16G\LL	.	.	.	.	.	.	.	.	.	.	.	.	.	.	.	.	.	.	.	.	.
.	.	16A-\	.	.	.	.	.	.	.	.	.	.	.	.	.	.	.	.	.	.	.	.	.
(8GG/	.	16B-\	.	.	.	.	.	.	.	.	.	.	.	.	.	.	.	.	.	.	.	.	.
.	.	16D-X\JJ	.	.	.	.	.	.	.	.	.	.	.	.	.	.	.	.	.	.	.	.	.
8AA-/L	2EE-\	16C\LL	.	.	.	.	.	.	.	.	.	.	.	.	.	.	.	.	.	.	.	.	.
.	.	16E-\	.	.	.	.	.	.	.	.	.	.	.	.	.	.	.	.	.	.	.	.	.
8C/J	.	16A-\	.	.	.	.	.	.	.	.	.	.	.	.	.	.	.	.	.	.	.	.	.
.	.	16c\JJ	.	.	.	.	.	.	.	.	.	.	.	.	.	.	.	.	.	.	.	.	.
4Dn/)	.	16B-\LL	.	.	.	.	.	.	.	.	.	.	.	.	.	.	.	.	.	.	.	.	.
.	.	16A-\	.	.	.	.	.	.	.	.	.	.	.	.	.	.	.	.	.	.	.	.	.
.	.	16G\	.	.	.	.	.	.	.	.	.	.	.	.	.	.	.	.	.	.	.	.	.
.	.	16F\JJ	.	.	.	.	.	.	.	.	.	.	.	.	.	.	.	.	.	.	.	.	.
=47	=47	=47	=47	=47	=47	=47	=47	=47	=47	=47	=47	=47	=47	=47	=47	=47	=47	=47	=47	=47	=47	=47	=47
4r	1EE-	16E-\LL	.	1ryy	.	.	.	1ryy	.	.	.	1ryy	.	.	.	1ryy	.	.	.	1r	.	.	.
.	.	16F\	.	.	.	.	.	.	.	.	.	.	.	.	.	.	.	.	.	.	.	.	.
.	.	16G\	.	.	.	.	.	.	.	.	.	.	.	.	.	.	.	.	.	.	.	.	.
.	.	16F\JJ	.	.	.	.	.	.	.	.	.	.	.	.	.	.	.	.	.	.	.	.	.
(4GG/	.	16E-/LL	.	.	.	.	.	.	.	.	.	.	.	.	.	.	.	.	.	.	.	.	.
.	.	16Dn/	.	.	.	.	.	.	.	.	.	.	.	.	.	.	.	.	.	.	.	.	.
.	.	16C/	.	.	.	.	.	.	.	.	.	.	.	.	.	.	.	.	.	.	.	.	.
.	.	16BB-/JJ	.	.	.	.	.	.	.	.	.	.	.	.	.	.	.	.	.	.	.	.	.
4FF/)	.	16AA-/LL	.	.	.	.	.	.	.	.	.	.	.	.	.	.	.	.	.	.	.	.	.
.	.	16BB-/	.	.	.	.	.	.	.	.	.	.	.	.	.	.	.	.	.	.	.	.	.
.	.	16C/	.	.	.	.	.	.	.	.	.	.	.	.	.	.	.	.	.	.	.	.	.
.	.	16E-/JJ	.	.	.	.	.	.	.	.	.	.	.	.	.	.	.	.	.	.	.	.	.
4r	.	16D/LL	.	.	.	.	.	.	.	.	.	.	.	.	.	.	.	.	.	.	.	.	.
.	.	16BB-/	.	.	.	.	.	.	.	.	.	.	.	.	.	.	.	.	.	.	.	.	.
.	.	16AA-/	.	.	.	.	.	.	.	.	.	.	.	.	.	.	.	.	.	.	.	.	.
.	.	16FF/JJ)	.	.	.	.	.	.	.	.	.	.	.	.	.	.	.	.	.	.	.	.	.
*v	*v	*	*	*	*	*	*	*	*	*	*	*	*	*	*	*	*	*	*	*	*	*	*
=48	=48	=48	=48	=48	=48	=48	=48	=48	=48	=48	=48	=48	=48	=48	=48	=48	=48	=48	=48	=48	=48	=48
!	!LO:N:vis=2	!	!	!	!	!	!	!	!	!	!	!	!	!	!	!	!	!	!	!	!	!
2EE-/	(16EE-</LL	.	1ryy	.	.	.	1ryy	.	.	.	1ryy	.	.	.	1ryy	.	.	.	1r	.	.	.
.	16GG\	.	.	.	.	.	.	.	.	.	.	.	.	.	.	.	.	.	.	.	.	.
.	16BB-\	.	.	.	.	.	.	.	.	.	.	.	.	.	.	.	.	.	.	.	.	.
.	16C\JJ	.	.	.	.	.	.	.	.	.	.	.	.	.	.	.	.	.	.	.	.	.
.	16E-\LL	.	.	.	.	.	.	.	.	.	.	.	.	.	.	.	.	.	.	.	.	.
.	16C\	.	.	.	.	.	.	.	.	.	.	.	.	.	.	.	.	.	.	.	.	.
.	16BB-\	.	.	.	.	.	.	.	.	.	.	.	.	.	.	.	.	.	.	.	.	.
.	16GG\JJ	.	.	.	.	.	.	.	.	.	.	.	.	.	.	.	.	.	.	.	.	.
!	!LO:N:vis=2	!	!	!	!	!	!	!	!	!	!	!	!	!	!	!	!	!	!	!	!	!
2EE-/	16EE-</LL	.	.	.	.	.	.	.	.	.	.	.	.	.	.	.	.	.	.	.	.	.
.	16GG\	.	.	.	.	.	.	.	.	.	.	.	.	.	.	.	.	.	.	.	.	.
.	16BB-\	.	.	.	.	.	.	.	.	.	.	.	.	.	.	.	.	.	.	.	.	.
.	16C\JJ	.	.	.	.	.	.	.	.	.	.	.	.	.	.	.	.	.	.	.	.	.
.	16E-\LL	.	.	.	.	.	.	.	.	.	.	.	.	.	.	.	.	.	.	.	.	.
.	16C\	.	.	.	.	.	.	.	.	.	.	.	.	.	.	.	.	.	.	.	.	.
.	16BB-\	.	.	.	.	.	.	.	.	.	.	.	.	.	.	.	.	.	.	.	.	.
.	16GG\JJ)	.	.	.	.	.	.	.	.	.	.	.	.	.	.	.	.	.	.	.	.	.
=49	=49	=49	=49	=49	=49	=49	=49	=49	=49	=49	=49	=49	=49	=49	=49	=49	=49	=49	=49	=49	=49	=49
1ryy	(16EE-</LL	.	1ryy	.	.	.	1ryy	.	.	.	1ryy	.	.	.	1ryy	.	.	.	1r	.	.	.
.	16GG\	.	.	.	.	.	.	.	.	.	.	.	.	.	.	.	.	.	.	.	.	.
.	16BB-\	.	.	.	.	.	.	.	.	.	.	.	.	.	.	.	.	.	.	.	.	.
.	16E-\JJ	.	.	.	.	.	.	.	.	.	.	.	.	.	.	.	.	.	.	.	.	.
.	8.G\L)	.	.	.	.	.	.	.	.	.	.	.	.	.	.	.	.	.	.	.	.	.
.	(16Dn\Jk	.	.	.	.	.	.	.	.	.	.	.	.	.	.	.	.	.	.	.	.	.
.	8.F\L	.	.	.	.	.	.	.	.	.	.	.	.	.	.	.	.	.	.	.	.	.
.	16E-\K)	.	.	.	.	.	.	.	.	.	.	.	.	.	.	.	.	.	.	.	.	.
.	8BB-<'</	.	.	.	.	.	.	.	.	.	.	.	.	.	.	.	.	.	.	.	.	.
.	8GG<'</J	.	.	.	.	.	.	.	.	.	.	.	.	.	.	.	.	.	.	.	.	.
*	*clefG2	*	*	*	*	*	*	*	*	*	*	*	*	*	*	*	*	*	*	*	*	*
=50	=50	=50	=50	=50	=50	=50	=50	=50	=50	=50	=50	=50	=50	=50	=50	=50	=50	=50	=50	=50	=50	=50
!	!	!	!	!	!	!	!	!	!	!	!LO:TX:a:t=Dzares (Sam)	!	!	!	!	!	!	!	!	!	!	!
!	!	!	!	!	!	!	!	!	!	!	!LO:TX:a:i:t=Djares (Solo)	!	!	!	!	!	!	!	!	!	!	!
4EE-/	1r	.	1ryy	.	.	.	1ryy	.	.	.	2r	.	.	.	1ryy	.	.	.	1ryy	.	.	.
!LO:TX:a:B:t=Recit.	!	!	!	!	!	!	!	!	!	!	!	!	!	!	!	!	!	!	!	!	!	!
4r	.	.	.	.	.	.	.	.	.	.	.	.	.	.	.	.	.	.	.	.	.	.
*	*	*	*	*	*	*	*	*	*	*	*clefF4	*	*	*	*	*	*	*	*	*	*	*
!	!	!	!	!	!	!	!	!	!	!	!LO:TX:a:B:t=Recit.	!	!	!	!	!	!	!	!	!	!	!
2r	.	.	.	.	.	.	.	.	.	.	4.G\	Ko-	Del	.	.	.	.	.	.	.	.	.
.	.	.	.	.	.	.	.	.	.	.	8B-\	-góż	mio	.	.	.	.	.	.	.	.	.
=51	=51	=51	=51	=51	=51	=51	=51	=51	=51	=51	=51	=51	=51	=51	=51	=51	=51	=51	=51	=51	=51	=51
1r	1r	.	1ryy	.	.	.	1ryy	.	.	.	4B-\	znów	duol	.	1ryy	.	.	.	1ryy	.	.	.
.	.	.	.	.	.	.	.	.	.	.	8E-\	mo-	chi	.	.	.	.	.	.	.	.	.
.	.	.	.	.	.	.	.	.	.	.	8F\	-im	sa-	.	.	.	.	.	.	.	.	.
.	.	.	.	.	.	.	.	.	.	.	4G\	ża-	-rà il	.	.	.	.	.	.	.	.	.
.	.	.	.	.	.	.	.	.	.	.	8F\	-lem	con-	.	.	.	.	.	.	.	.	.
.	.	.	.	.	.	.	.	.	.	.	8E-\	o-	-fi-	.	.	.	.	.	.	.	.	.
=52	=52	=52	=52	=52	=52	=52	=52	=52	=52	=52	=52	=52	=52	=52	=52	=52	=52	=52	=52	=52	=52	=52
1r	1r	.	1ryy	.	.	.	1ryy	.	.	.	4c\	-bar-	-den-	.	1ryy	.	.	.	1ryy	.	.	.
.	.	.	.	.	.	.	.	.	.	.	8B-\	-czę?	-te?	.	.	.	.	.	.	.	.	.
.	.	.	.	.	.	.	.	.	.	.	8r	.	.	.	.	.	.	.	.	.	.	.
.	.	.	.	.	.	.	.	.	.	.	8.B-\	Je-	Se	.	.	.	.	.	.	.	.	.
.	.	.	.	.	.	.	.	.	.	.	16B-\	-śli	non	.	.	.	.	.	.	.	.	.
.	.	.	.	.	.	.	.	.	.	.	8.c\	to	fos-	.	.	.	.	.	.	.	.	.
.	.	.	.	.	.	.	.	.	.	.	16d-\	nie	-se	.	.	.	.	.	.	.	.	.
=53	=53	=53	=53	=53	=53	=53	=53	=53	=53	=53	=53	=53	=53	=53	=53	=53	=53	=53	=53	=53	=53	=53
1r	1r	.	1ryy	.	.	.	1ryy	.	.	.	4D-\	on?	lui?..	.	1ryy	.	.	.	1ryy	.	.	.
.	.	.	.	.	.	.	.	.	.	.	8r	.	.	.	.	.	.	.	.	.	.	.
.	.	.	.	.	.	.	.	.	.	.	8B-\	cóż	Che	.	.	.	.	.	.	.	.	.
.	.	.	.	.	.	.	.	.	.	.	(4..B-\	po-	gli	.	.	.	.	.	.	.	.	.
.	.	.	.	.	.	.	.	.	.	.	16D-\)	-wiem	di	.	.	.	.	.	.	.	.	.
=||	=||	=||	=||	=||	=||	=||	=||	=||	=||	=||	=||	=||	=||	=||	=||	=||	=||	=||	=||	=||	=||	=||
*-	*-	*-	*-	*-	*-	*-	*-	*-	*-	*-	*-	*-	*-	*-	*-	*-	*-	*-	*-	*-	*-	*-
!!!system-decoration: s1,s2,s3[(s4,s5)]{(s6,s7)}
!!!RDF**kern: > = above
!!!RDF**kern: < = below
!!!ENC: Filip Voros
!!!END: 2022-09-02
!!!ENC: Jan Barakat
!!!END: 2022-10-12
!!!YEC: Copyright 2022 Narodowy Instytut Fryderyka Chopina (https://polishscores.org)
!!!YEM: License CC-BY-4.0 (https://creativecommons.org/licenses/by/4.0)
